ian-james/MediaPose_Validation_Test/videos/tests/test_quick_flexion_saved_frame_data.csv
fps_count	timestamp	shoulder_left_x	shoulder_left_y	shoulder_left_pos	shoulder_left_visibility	shoulder_left_presence	shoulder_right_x	shoulder_right_y	shoulder_right_pos	shoulder_right_visibility	shoulder_right_presence	elbow_left_x	elbow_left_y	elbow_left_pos	elbow_left_visibility	elbow_left_presence	elbow_right_x	elbow_right_y	elbow_right_pos	elbow_right_visibility	elbow_right_presence	wrist_left_x	wrist_left_y	wrist_left_pos	wrist_left_visibility	wrist_left_presence	wrist_right_x	wrist_right_y	wrist_right_pos	wrist_right_visibility	wrist_right_presence	hip_left_x	hip_left_y	hip_left_pos	hip_left_visibility	hip_left_presence	hip_right_x	hip_right_y	hip_right_pos	hip_right_visibility	hip_right_presence	shoulder_center_x	shoulder_center_y	shoulder_center_pos	shoulder_center_visibility	shoulder_center_presence	shoulder_left_gh_joint_x	shoulder_left_gh_joint_y	shoulder_left_gh_joint_pos	shoulder_left_gh_joint_visibility	shoulder_left_gh_joint_presence	flexion_left	abduction_left	extension_left	internal_rotation_left	external_rotation_left	shoulder_right_gh_joint_x	shoulder_right_gh_joint_y	shoulder_right_gh_joint_pos	shoulder_right_gh_joint_visibility	shoulder_right_gh_joint_presence	flexion_right	abduction_right	extension_right	internal_rotation_right	external_rotation_right	shoulder_left_axis_x	shoulder_left_axis_y	shoulder_left_axis_pos	shoulder_left_axis_visibility	shoulder_left_axis_presence	shoulder_right_axis_x	shoulder_right_axis_y	shoulder_right_axis_pos	shoulder_right_axis_visibility	shoulder_right_axis_presence	test_shoulder_left_axis_x	test_shoulder_left_axis_y	test_shoulder_left_axis_pos	test_shoulder_left_axis_visibility	test_shoulder_left_axis_presence	test_shoulder_right_axis_x	test_shoulder_right_axis_y	test_shoulder_right_axis_pos	test_shoulder_right_axis_visibility	test_shoulder_right_axis_presence
1	2023-04-10T21:45:47.566575+00:00	0.6382033228874207	-0.325040727853775	(0.6382033228874207, 0.6175343990325928, -0.325040727853775)	0.9991427659988403	0.9991427659988403	0.40839022397994995	-0.07436114549636841	(0.40839022397994995, 0.6350640058517456, -0.07436114549636841)	0.9985259175300598	0.9985259175300598	0.6708257794380188	-0.3294924199581146	(0.6708257794380188, 0.9315680265426636, -0.3294924199581146)	0.738633930683136	0.738633930683136	0.3901856541633606	-0.0981852263212204	(0.3901856541633606, 0.8919931650161743, -0.0981852263212204)	0.5267990827560425	0.5267990827560425	0.6249613761901855	-0.5256332159042358	(0.6249613761901855, 1.1733826398849487, -0.5256332159042358)	0.2165471762418747	0.2165471762418747	0.3814987540245056	-0.5772778987884521	(0.3814987540245056, 1.0093376636505127, -0.5772778987884521)	0.13681669533252716	0.13681669533252716	0.6249613761901855	-0.5256332159042358	(0.6249613761901855, 1.1733826398849487, -0.5256332159042358)	0.2165471762418747	0.2165471762418747	0.3814987540245056	-0.5772778987884521	(0.3814987540245056, 1.0093376636505127, -0.5772778987884521)	0.13681669533252716	0.13681669533252716	0.5232967734336853	-0.19970093667507172	(0.5232967734336853, 0.6262992024421692, -0.19970093667507172)			0.6301675289869308	-0.27166927233338356	(0.6301675289869308, 0.746050626039505, -0.27166927233338356)			9.508632098038788	5.930730213818862	354.06926978618117	91.3646965499247	88.6353034500753	0.4169519320130348	-0.027229929342865944	(0.4169519320130348, 0.7580201625823975, -0.027229929342865944)			8.036088634187678	-4.0528867054486994	4.052886705448685	94.10962550274368	85.89037449725632	0.32713745534420013	-0.21589181944727898	(0.32713745534420013, 0.18025097250938416, -0.21589181944727898)			0.1956334039568901	-0.08431178890168667	(0.1956334039568901, 0.19457584619522095, -0.08431178890168667)			0.6382033228874207	-0.325040727853775	(0.6382033228874207, 1.1315993070602417, -0.325040727853775)			0.40839022397994995	-0.07436114549636841	(0.40839022397994995, 1.126888632774353, -0.07436114549636841)		
2	2023-04-10T21:45:47.671248+00:00	0.6335113048553467	-0.3419187664985657	(0.6335113048553467, 0.6068803071975708, -0.3419187664985657)	0.9991371631622314	0.9991371631622314	0.4157913625240326	0.015615236945450306	(0.4157913625240326, 0.6326228976249695, 0.015615236945450306)	0.9983460307121277	0.9983460307121277	0.669662356376648	-0.3864777386188507	(0.669662356376648, 0.9102099537849426, -0.3864777386188507)	0.7340324521064758	0.7340324521064758	0.3958424925804138	0.14546580612659454	(0.3958424925804138, 0.8835083842277527, 0.14546580612659454)	0.5015143156051636	0.5015143156051636	0.6276785731315613	-0.5754017233848572	(0.6276785731315613, 1.1403286457061768, -0.5754017233848572)	0.2254912555217743	0.2254912555217743	0.375727117061615	-0.15586069226264954	(0.375727117061615, 1.0439001321792603, -0.15586069226264954)	0.13462209701538086	0.13462209701538086	0.6276785731315613	-0.5754017233848572	(0.6276785731315613, 1.1403286457061768, -0.5754017233848572)	0.2254912555217743	0.2254912555217743	0.375727117061615	-0.15586069226264954	(0.375727117061615, 1.0439001321792603, -0.15586069226264954)	0.13462209701538086	0.13462209701538086	0.5246513336896896	-0.16315176477655768	(0.5246513336896896, 0.6197516024112701, -0.16315176477655768)			0.6262896358966827	-0.293099794536829	(0.6262896358966827, 0.7382954359054565, -0.293099794536829)			9.941912231597883	6.796495098451118	353.20350490154885	90.62644790475788	89.37355209524212	0.42345568537712097	0.04892589314840734	(0.42345568537712097, 0.7567067593336105, 0.04892589314840734)			8.080756922324326	-4.546242755223247	4.546242755223233	95.5638677220589	84.4361322779411	0.3239773213863373	-0.21977835521101952	(0.3239773213863373, 0.17202502489089966, -0.21977835521101952)			0.20023135840892792	-0.02550303773023188	(0.20023135840892792, 0.1922275871038437, -0.02550303773023188)			0.6335113048553467	-0.3419187664985657	(0.6335113048553467, 1.1325408220291138, -0.3419187664985657)			0.4157913625240326	0.015615236945450306	(0.4157913625240326, 1.1289583444595337, 0.015615236945450306)		
3	2023-04-10T21:45:47.734483+00:00	0.6329883337020874	-0.3276655972003937	(0.6329883337020874, 0.6018778085708618, -0.3276655972003937)	0.999112069606781	0.999112069606781	0.42426609992980957	-0.007645870558917522	(0.42426609992980957, 0.6294659376144409, -0.007645870558917522)	0.9981663227081299	0.9981663227081299	0.6696560978889465	-0.37626317143440247	(0.6696560978889465, 0.8947123885154724, -0.37626317143440247)	0.7270837426185608	0.7270837426185608	0.4092008173465729	0.11593931913375854	(0.4092008173465729, 0.8783528804779053, 0.11593931913375854)	0.4803953170776367	0.4803953170776367	0.6464087963104248	-0.5643929243087769	(0.6464087963104248, 1.1183135509490967, -0.5643929243087769)	0.23162144422531128	0.23162144422531128	0.3801612854003906	-0.17457328736782074	(0.3801612854003906, 1.0461711883544922, -0.17457328736782074)	0.1337190717458725	0.1337190717458725	0.6464087963104248	-0.5643929243087769	(0.6464087963104248, 1.1183135509490967, -0.5643929243087769)	0.23162144422531128	0.23162144422531128	0.3801612854003906	-0.17457328736782074	(0.3801612854003906, 1.0461711883544922, -0.17457328736782074)	0.1337190717458725	0.1337190717458725	0.5286272168159485	-0.1676557338796556	(0.5286272168159485, 0.6156718730926514, -0.1676557338796556)			0.6262221932411194	-0.28102798759937286	(0.6262221932411194, 0.733801007270813, -0.28102798759937286)			10.073278877195833	7.137238005381846	352.86276199461815	88.51140658193168	91.48859341806832	0.43184109777212143	0.03016111603938043	(0.43184109777212143, 0.7539515793323517, 0.03016111603938043)			6.946098946164028	-3.4639230015504694	3.463923001550455	96.04179177902154	83.95820822097846	0.3232603073120117	-0.21047040820121765	(0.3232603073120117, 0.16901570558547974, -0.21047040820121765)			0.20455805212259293	-0.041629921877756715	(0.20455805212259293, 0.1902473270893097, -0.041629921877756715)			0.6329883337020874	-0.3276655972003937	(0.6329883337020874, 1.1295706033706665, -0.3276655972003937)			0.42426609992980957	-0.007645870558917522	(0.42426609992980957, 1.127408504486084, -0.007645870558917522)		
4	2023-04-10T21:45:47.792590+00:00	0.6317054629325867	-0.3298581540584564	(0.6317054629325867, 0.60007643699646, -0.3298581540584564)	0.9991201758384705	0.9991201758384705	0.4331461787223816	0.06443746387958527	(0.4331461787223816, 0.6250585317611694, 0.06443746387958527)	0.9978823661804199	0.9978823661804199	0.6680176258087158	-0.3987845778465271	(0.6680176258087158, 0.8879398107528687, -0.3987845778465271)	0.7283403277397156	0.7283403277397156	0.42682337760925293	0.20896437764167786	(0.42682337760925293, 0.8751322031021118, 0.20896437764167786)	0.44864600896835327	0.44864600896835327	0.6439909338951111	-0.565969705581665	(0.6439909338951111, 1.1148343086242676, -0.565969705581665)	0.24956992268562317	0.24956992268562317	0.39714550971984863	-0.058175623416900635	(0.39714550971984863, 1.043641209602356, -0.058175623416900635)	0.12945331633090973	0.12945331633090973	0.6439909338951111	-0.565969705581665	(0.6439909338951111, 1.1148343086242676, -0.565969705581665)	0.24956992268562317	0.24956992268562317	0.39714550971984863	-0.058175623416900635	(0.39714550971984863, 1.043641209602356, -0.058175623416900635)	0.12945331633090973	0.12945331633090973	0.5324258208274841	-0.13271034508943558	(0.5324258208274841, 0.6125674843788147, -0.13271034508943558)			0.6246548295021057	-0.2833838649094105	(0.6246548295021057, 0.7323863804340363, -0.2833838649094105)			10.239866749073201	7.1895305974896075	352.8104694025104	88.63280958026596	91.36719041973404	0.4387962818145752	0.08492787927389145	(0.4387962818145752, 0.7505578398704529, 0.08492787927389145)			4.026115838830236	-1.4483438031606681	1.4483438031606681	94.9156905527338	85.0843094472662	0.3229033648967743	-0.21140336617827415	(0.3229033648967743, 0.1677282750606537, -0.21140336617827415)			0.2109229862689972	0.01172831654548645	(0.2109229862689972, 0.18702995777130127, 0.01172831654548645)			0.6317054629325867	-0.3298581540584564	(0.6317054629325867, 1.1293162107467651, -0.3298581540584564)			0.4331461787223816	0.06443746387958527	(0.4331461787223816, 1.1270557641983032, 0.06443746387958527)		
5	2023-04-10T21:45:47.852364+00:00	0.6289458870887756	-0.35837098956108093	(0.6289458870887756, 0.5969821810722351, -0.35837098956108093)	0.9991477727890015	0.9991477727890015	0.44864621758461	0.12799400091171265	(0.44864621758461, 0.6180714964866638, 0.12799400091171265)	0.9970937371253967	0.9970937371253967	0.6623685359954834	-0.43910878896713257	(0.6623685359954834, 0.8864786028862, -0.43910878896713257)	0.7383342981338501	0.7383342981338501	0.45135244727134705	0.2837221324443817	(0.45135244727134705, 0.863108217716217, 0.2837221324443817)	0.4084096848964691	0.4084096848964691	0.6300045251846313	-0.5633615851402283	(0.6300045251846313, 1.1162551641464233, -0.5633615851402283)	0.2692123055458069	0.2692123055458069	0.42521944642066956	0.03635561466217041	(0.42521944642066956, 1.0344523191452026, 0.03635561466217041)	0.11862368136644363	0.11862368136644363	0.6300045251846313	-0.5633615851402283	(0.6300045251846313, 1.1162551641464233, -0.5633615851402283)	0.2692123055458069	0.2692123055458069	0.42521944642066956	0.03635561466217041	(0.42521944642066956, 1.0344523191452026, 0.03635561466217041)	0.11862368136644363	0.11862368136644363	0.5387960523366928	-0.11518849432468414	(0.5387960523366928, 0.6075268387794495, -0.11518849432468414)			0.6214634925127029	-0.3094828277826309	(0.6214634925127029, 0.7300376445055008, -0.3094828277826309)			9.804344733924154	6.58569772536373	353.41430227463627	89.88319166822062	90.11680833177938	0.4509279206395149	0.13729022443294525	(0.4509279206395149, 0.7451388388872147, 0.13729022443294525)			0.3959701837393368	0.6327591835323858	359.36724081646764	93.22022874202032	86.77977125797968	0.3219553381204605	-0.22807365655899048	(0.3219553381204605, 0.16543562710285187, -0.22807365655899048)			0.22204140573740005	0.05470077693462372	(0.22204140573740005, 0.18196840584278107, 0.05470077693462372)			0.6289458870887756	-0.35837098956108093	(0.6289458870887756, 1.1292040348052979, -0.35837098956108093)			0.44864621758461	0.12799400091171265	(0.44864621758461, 1.1263408660888672, 0.12799400091171265)		
6	2023-04-10T21:45:47.912021+00:00	0.6285249590873718	-0.3692965507507324	(0.6285249590873718, 0.5951927304267883, -0.3692965507507324)	0.9990698099136353	0.9990698099136353	0.4603993892669678	0.13469597697257996	(0.4603993892669678, 0.6175614595413208, 0.13469597697257996)	0.9955457448959351	0.9955457448959351	0.6569599509239197	-0.46586188673973083	(0.6569599509239197, 0.8819390535354614, -0.46586188673973083)	0.7428867816925049	0.7428867816925049	0.4715149998664856	0.24299509823322296	(0.4715149998664856, 0.8648348450660706, 0.24299509823322296)	0.3702748417854309	0.3702748417854309	0.6054266691207886	-0.5641717910766602	(0.6054266691207886, 1.0999516248703003, -0.5641717910766602)	0.2759872078895569	0.2759872078895569	0.4477917551994324	0.00014835332694929093	(0.4477917551994324, 1.0449657440185547, 0.00014835332694929093)	0.10791625082492828	0.10791625082492828	0.6054266691207886	-0.5641717910766602	(0.6054266691207886, 1.0999516248703003, -0.5641717910766602)	0.2759872078895569	0.2759872078895569	0.4477917551994324	0.00014835332694929093	(0.4477917551994324, 1.0449657440185547, 0.00014835332694929093)	0.10791625082492828	0.10791625082492828	0.5444621741771698	-0.11730028688907623	(0.5444621741771698, 0.6063770949840546, -0.11730028688907623)			0.6213744729757309	-0.32007915526628494	(0.6213744729757309, 0.7285290509462357, -0.32007915526628494)			8.73286569812899	5.663179922020532	354.3368200779795	92.62008636859987	87.37991363140013	0.4636063799262047	0.1446477174758911	(0.4636063799262047, 0.7447544038295746, 0.1446477174758911)			1.1295419608182442	2.5738682011886453	357.4261317988114	91.68962932234352	88.31037067765648	0.32141296565532684	-0.2338656708598137	(0.32141296565532684, 0.16426004469394684, -0.2338656708598137)			0.22699270397424698	0.05739624798297882	(0.22699270397424698, 0.18158778548240662, 0.05739624798297882)			0.6285249590873718	-0.3692965507507324	(0.6285249590873718, 1.1285380125045776, -0.3692965507507324)			0.4603993892669678	0.13469597697257996	(0.4603993892669678, 1.126333236694336, 0.13469597697257996)		
7	2023-04-10T21:45:47.969920+00:00	0.6250125169754028	-0.38715460896492004	(0.6250125169754028, 0.5859366655349731, -0.38715460896492004)	0.9991126656532288	0.9991126656532288	0.47539788484573364	0.21455606818199158	(0.47539788484573364, 0.6178004145622253, 0.21455606818199158)	0.9949410557746887	0.9949410557746887	0.6424880623817444	-0.5264220237731934	(0.6424880623817444, 0.8798311352729797, -0.5264220237731934)	0.7542505264282227	0.7542505264282227	0.48791003227233887	0.32034677267074585	(0.48791003227233887, 0.8668547868728638, 0.32034677267074585)	0.33478739857673645	0.33478739857673645	0.5875704288482666	-0.598492443561554	(0.5875704288482666, 1.1032943725585938, -0.598492443561554)	0.3076789975166321	0.3076789975166321	0.4634760916233063	0.10283913463354111	(0.4634760916233063, 1.0777033567428589, 0.10283913463354111)	0.09825749695301056	0.09825749695301056	0.5875704288482666	-0.598492443561554	(0.5875704288482666, 1.1032943725585938, -0.598492443561554)	0.3076789975166321	0.3076789975166321	0.4634760916233063	0.10283913463354111	(0.4634760916233063, 1.0777033567428589, 0.10283913463354111)	0.09825749695301056	0.09825749695301056	0.5502052009105682	-0.08629927039146423	(0.5502052009105682, 0.6018685400485992, -0.08629927039146423)			0.6198504418134689	-0.3386426083743572	(0.6198504418134689, 0.7217738032341003, -0.3386426083743572)			5.579217067910861	3.402913353139681	356.5970866468603	94.13937960186304	85.86062039813696	0.47848503291606903	0.20971112325787544	(0.47848503291606903, 0.7460232824087143, 0.20971112325787544)			1.4968317666447604	2.876042763234338	357.1239572367657	91.48491221533189	88.51508778466811	0.3176683336496353	-0.24208930507302284	(0.3176683336496353, 0.15713119506835938, -0.24208930507302284)			0.23461179435253143	0.11212297901511192	(0.23461179435253143, 0.18067733943462372, 0.11212297901511192)			0.6250125169754028	-0.38715460896492004	(0.6250125169754028, 1.129285216331482, -0.38715460896492004)			0.47539788484573364	0.21455606818199158	(0.47539788484573364, 1.1306918859481812, 0.21455606818199158)		
8	2023-04-10T21:45:48.030406+00:00	0.6234536170959473	-0.39900335669517517	(0.6234536170959473, 0.5836756825447083, -0.39900335669517517)	0.999164879322052	0.999164879322052	0.48082059621810913	0.209463432431221	(0.48082059621810913, 0.61827552318573, 0.209463432431221)	0.9946581125259399	0.9946581125259399	0.6292610168457031	-0.5275030732154846	(0.6292610168457031, 0.8801697492599487, -0.5275030732154846)	0.7667682766914368	0.7667682766914368	0.4932517111301422	0.3148164749145508	(0.4932517111301422, 0.8705902099609375, 0.3148164749145508)	0.30315983295440674	0.30315983295440674	0.5709825158119202	-0.5878115892410278	(0.5709825158119202, 1.1083933115005493, -0.5878115892410278)	0.3377339243888855	0.3377339243888855	0.46462297439575195	0.09714209288358688	(0.46462297439575195, 1.0794509649276733, 0.09714209288358688)	0.08974713832139969	0.08974713832139969	0.5709825158119202	-0.5878115892410278	(0.5709825158119202, 1.1083933115005493, -0.5878115892410278)	0.3377339243888855	0.3377339243888855	0.46462297439575195	0.09714209288358688	(0.46462297439575195, 1.0794509649276733, 0.09714209288358688)	0.08974713832139969	0.08974713832139969	0.5521371066570282	-0.09476996213197708	(0.5521371066570282, 0.6009756028652191, -0.09476996213197708)			0.6191329658031464	-0.34733201935887337	(0.6191329658031464, 0.7203227132558823, -0.34733201935887337)			2.9331388217818812	1.1221032434753369	358.87789675652465	95.7105216090618	84.2894783909382	0.48274797201156616	0.20571017265319824	(0.48274797201156616, 0.7474055588245392, 0.20571017265319824)			1.9654599339781669	2.820584757903333	357.17941524209664	92.01154258038613	87.98845741961387	0.31604745984077454	-0.2511730156838894	(0.31604745984077454, 0.15519081056118011, -0.2511730156838894)			0.23848292231559753	0.10848497599363327	(0.23848292231559753, 0.1800077259540558, 0.10848497599363327)			0.6234536170959473	-0.39900335669517517	(0.6234536170959473, 1.1302638053894043, -0.39900335669517517)			0.48082059621810913	0.209463432431221	(0.48082059621810913, 1.1347956657409668, 0.209463432431221)		
9	2023-04-10T21:45:48.089292+00:00	0.6161049604415894	-0.3925941586494446	(0.6161049604415894, 0.5796005129814148, -0.3925941586494446)	0.9992196559906006	0.9992196559906006	0.4986720085144043	0.23459844291210175	(0.4986720085144043, 0.6186505556106567, 0.23459844291210175)	0.9948077201843262	0.9948077201843262	0.6088148355484009	-0.5212054252624512	(0.6088148355484009, 0.8800098299980164, -0.5212054252624512)	0.778404951095581	0.778404951095581	0.5068897604942322	0.30944496393203735	(0.5068897604942322, 0.8799943327903748, 0.30944496393203735)	0.27488571405410767	0.27488571405410767	0.5385560989379883	-0.5476022958755493	(0.5385560989379883, 1.1086652278900146, -0.5476022958755493)	0.36615586280822754	0.36615586280822754	0.4727321267127991	0.10736231505870819	(0.4727321267127991, 1.0767236948013306, 0.10736231505870819)	0.0822313129901886	0.0822313129901886	0.5385560989379883	-0.5476022958755493	(0.5385560989379883, 1.1086652278900146, -0.5476022958755493)	0.36615586280822754	0.36615586280822754	0.4727321267127991	0.10736231505870819	(0.4727321267127991, 1.0767236948013306, 0.10736231505870819)	0.0822313129901886	0.0822313129901886	0.5573884844779968	-0.07899785786867142	(0.5573884844779968, 0.5991255342960358, -0.07899785786867142)			0.6142569184303284	-0.34226633608341217	(0.6142569184303284, 0.7172429114580154, -0.34226633608341217)			0.6209115042813096	-1.3901413847546849	1.3901413847546849	98.33887732233033	81.66112267766967	0.49902060627937317	0.22428340837359428	(0.49902060627937317, 0.7476578652858734, 0.22428340837359428)			1.6462061273770985	1.8010278356860994	358.1989721643139	93.24109840470346	86.75890159529654	0.30990052223205566	-0.2466249018907547	(0.30990052223205566, 0.15215785801410675, -0.2466249018907547)			0.24898740649223328	0.12761425599455833	(0.24898740649223328, 0.1803179681301117, 0.12761425599455833)			0.6161049604415894	-0.3925941586494446	(0.6161049604415894, 1.1301701068878174, -0.3925941586494446)			0.4986720085144043	0.23459844291210175	(0.4986720085144043, 1.1346797943115234, 0.23459844291210175)		
10	2023-04-10T21:45:48.147010+00:00	0.5965977311134338	-0.40100711584091187	(0.5965977311134338, 0.5781477689743042, -0.40100711584091187)	0.9992063641548157	0.9992063641548157	0.5260246992111206	0.2421458512544632	(0.5260246992111206, 0.6119869351387024, 0.2421458512544632)	0.9948358535766602	0.9948358535766602	0.5827639698982239	-0.5351314544677734	(0.5827639698982239, 0.877147376537323, -0.5351314544677734)	0.7851877212524414	0.7851877212524414	0.5364053845405579	0.3112017810344696	(0.5364053845405579, 0.8869244456291199, 0.3112017810344696)	0.24896129965782166	0.24896129965782166	0.5069648027420044	-0.5409119129180908	(0.5069648027420044, 1.1056201457977295, -0.5409119129180908)	0.39272183179855347	0.39272183179855347	0.49368420243263245	0.13018007576465607	(0.49368420243263245, 1.0784125328063965, 0.13018007576465607)	0.07561324536800385	0.07561324536800385	0.5069648027420044	-0.5409119129180908	(0.5069648027420044, 1.1056201457977295, -0.5409119129180908)	0.39272183179855347	0.39272183179855347	0.49368420243263245	0.13018007576465607	(0.49368420243263245, 1.0784125328063965, 0.13018007576465607)	0.07561324536800385	0.07561324536800385	0.5613112151622772	-0.07943063229322433	(0.5613112151622772, 0.5950673520565033, -0.07943063229322433)			0.599296823143959	-0.34834016114473343	(0.599296823143959, 0.715301126241684, -0.34834016114473343)			3.776403936112871	-2.649004462558395	2.6490044625583664	99.64409943467506	80.35590056532494	0.5236194133758545	0.229652501642704	(0.5236194133758545, 0.7420341223478317, 0.229652501642704)			3.221854952187414	2.162262518067351	357.83773748193266	93.96636261757666	86.03363738242334	0.2955997735261917	-0.25317051261663437	(0.2955997735261917, 0.15192052721977234, -0.25317051261663437)			0.2654176354408264	0.13356627523899078	(0.2654176354408264, 0.17594628036022186, 0.13356627523899078)			0.5965977311134338	-0.40100711584091187	(0.5965977311134338, 1.1267611980438232, -0.40100711584091187)			0.5260246992111206	0.2421458512544632	(0.5260246992111206, 1.1321756839752197, 0.2421458512544632)		
11	2023-04-10T21:45:48.204847+00:00	0.5897852182388306	-0.39792144298553467	(0.5897852182388306, 0.5751371383666992, -0.39792144298553467)	0.9991845488548279	0.9991845488548279	0.536927342414856	0.25908422470092773	(0.536927342414856, 0.6075582504272461, 0.25908422470092773)	0.9947448968887329	0.9947448968887329	0.5766680836677551	-0.5362139940261841	(0.5766680836677551, 0.8712568283081055, -0.5362139940261841)	0.7908092737197876	0.7908092737197876	0.5398699045181274	0.3279619812965393	(0.5398699045181274, 0.8881279230117798, 0.3279619812965393)	0.22550930082798004	0.22550930082798004	0.4993244707584381	-0.5272888541221619	(0.4993244707584381, 1.0983951091766357, -0.5272888541221619)	0.4201115667819977	0.4201115667819977	0.4922361969947815	0.16629114747047424	(0.4922361969947815, 1.0754797458648682, 0.16629114747047424)	0.06957906484603882	0.06957906484603882	0.4993244707584381	-0.5272888541221619	(0.4993244707584381, 1.0983951091766357, -0.5272888541221619)	0.4201115667819977	0.4201115667819977	0.4922361969947815	0.16629114747047424	(0.4922361969947815, 1.0754797458648682, 0.16629114747047424)	0.06957906484603882	0.06957906484603882	0.5633562803268433	-0.06941860914230347	(0.5633562803268433, 0.5913476943969727, -0.06941860914230347)			0.5939370393753052	-0.34572187066078186	(0.5939370393753052, 0.7124181091785431, -0.34572187066078186)			4.2686396200563195	-2.5363577145402445	2.5363577145402587	99.80833594679231	80.19166405320769	0.5333466529846191	0.24203765764832497	(0.5333466529846191, 0.7384670972824097, 0.24203765764832497)			2.1676797817720797	0.6008853586536986	359.3991146413463	95.45576615163068	84.54423384836932	0.2907407879829407	-0.25116029381752014	(0.2907407879829407, 0.15028759837150574, -0.25116029381752014)			0.2720443606376648	0.14658867940306664	(0.2720443606376648, 0.17287027835845947, 0.14658867940306664)			0.5897852182388306	-0.39792144298553467	(0.5897852182388306, 1.1242610216140747, -0.39792144298553467)			0.536927342414856	0.25908422470092773	(0.536927342414856, 1.1311936378479004, 0.25908422470092773)		
12	2023-04-10T21:45:48.265849+00:00	0.5923441648483276	-0.3947904706001282	(0.5923441648483276, 0.573442816734314, -0.3947904706001282)	0.9992231130599976	0.9992231130599976	0.5365387797355652	0.26473671197891235	(0.5365387797355652, 0.6066323518753052, 0.26473671197891235)	0.9948785901069641	0.9948785901069641	0.5785887241363525	-0.517650306224823	(0.5785887241363525, 0.8719238638877869, -0.517650306224823)	0.7992030382156372	0.7992030382156372	0.533108651638031	0.3404693305492401	(0.533108651638031, 0.8902001976966858, 0.3404693305492401)	0.2046264111995697	0.2046264111995697	0.5012730360031128	-0.5037012696266174	(0.5012730360031128, 1.0941113233566284, -0.5037012696266174)	0.44616660475730896	0.44616660475730896	0.4846095144748688	0.16534742712974548	(0.4846095144748688, 1.073356032371521, 0.16534742712974548)	0.06438268721103668	0.06438268721103668	0.5012730360031128	-0.5037012696266174	(0.5012730360031128, 1.0941113233566284, -0.5037012696266174)	0.44616660475730896	0.44616660475730896	0.4846095144748688	0.16534742712974548	(0.4846095144748688, 1.073356032371521, 0.16534742712974548)	0.06438268721103668	0.06438268721103668	0.5644414722919464	-0.06502687931060791	(0.5644414722919464, 0.5900375843048096, -0.06502687931060791)			0.5957677811384201	-0.3429730758070946	(0.5957677811384201, 0.7111071348190308, -0.3429730758070946)			4.063210617628414	-2.6385978961093315	2.638597896109303	99.9213488525112	80.0786511474888	0.5313911586999893	0.2458989880979061	(0.5313911586999893, 0.7376272082328796, 0.2458989880979061)			1.5573232955414653	-0.6930344231006984	0.6930344231006984	96.34881091085043	83.65118908914957	0.29274846613407135	-0.2492126300930977	(0.29274846613407135, 0.14905709028244019, -0.2492126300930977)			0.27341701090335846	0.15120607987046242	(0.27341701090335846, 0.17232131958007812, 0.15120607987046242)			0.5923441648483276	-0.3947904706001282	(0.5923441648483276, 1.1241000890731812, -0.3947904706001282)			0.5365387797355652	0.26473671197891235	(0.5365387797355652, 1.130611777305603, 0.26473671197891235)		
13	2023-04-10T21:45:48.324098+00:00	0.5933380722999573	-0.39141395688056946	(0.5933380722999573, 0.5737067461013794, -0.39141395688056946)	0.9992096424102783	0.9992096424102783	0.5378085374832153	0.253639280796051	(0.5378085374832153, 0.6068660616874695, 0.253639280796051)	0.9949018359184265	0.9949018359184265	0.5776855945587158	-0.507244884967804	(0.5776855945587158, 0.8714970350265503, -0.507244884967804)	0.8010945916175842	0.8010945916175842	0.5328418016433716	0.3238978683948517	(0.5328418016433716, 0.8928014039993286, 0.3238978683948517)	0.18577545881271362	0.18577545881271362	0.5001736283302307	-0.4878390431404114	(0.5001736283302307, 1.0899288654327393, -0.4878390431404114)	0.4589042067527771	0.4589042067527771	0.4909399151802063	0.14380642771720886	(0.4909399151802063, 1.0692695379257202, 0.14380642771720886)	0.05956336110830307	0.05956336110830307	0.5001736283302307	-0.4878390431404114	(0.5001736283302307, 1.0899288654327393, -0.4878390431404114)	0.4589042067527771	0.4589042067527771	0.4909399151802063	0.14380642771720886	(0.4909399151802063, 1.0692695379257202, 0.14380642771720886)	0.05956336110830307	0.05956336110830307	0.5655733048915863	-0.06888733804225922	(0.5655733048915863, 0.5902864038944244, -0.06888733804225922)			0.5965122431516647	-0.3406745679676533	(0.5965122431516647, 0.7113092839717865, -0.3406745679676533)			4.330262798484398	-3.0088166375286534	3.008816637528639	100.23025305674382	79.76974694325618	0.5326709896326065	0.23779460415244102	(0.5326709896326065, 0.7375577241182327, 0.23779460415244102)			1.2560282607263673	-0.9951354171500668	0.9951354171500668	95.7876605970853	84.2123394029147	0.2934948652982712	-0.2464463673532009	(0.2934948652982712, 0.1492508351802826, -0.2464463673532009)			0.2740418165922165	0.1426643170416355	(0.2740418165922165, 0.1727413684129715, 0.1426643170416355)			0.5933380722999573	-0.39141395688056946	(0.5933380722999573, 1.1241168975830078, -0.39141395688056946)			0.5378085374832153	0.253639280796051	(0.5378085374832153, 1.1296327114105225, 0.253639280796051)		
14	2023-04-10T21:45:48.381546+00:00	0.5948627591133118	-0.4153030514717102	(0.5948627591133118, 0.5744266510009766, -0.4153030514717102)	0.9991833567619324	0.9991833567619324	0.5423763990402222	0.260151743888855	(0.5423763990402222, 0.6073815822601318, 0.260151743888855)	0.9948759078979492	0.9948759078979492	0.5786709189414978	-0.5372141003608704	(0.5786709189414978, 0.871876060962677, -0.5372141003608704)	0.8021299242973328	0.8021299242973328	0.5356523990631104	0.33871719241142273	(0.5356523990631104, 0.8953697085380554, 0.33871719241142273)	0.1685882955789566	0.1685882955789566	0.49650850892066956	-0.4996024966239929	(0.49650850892066956, 1.090169906616211, -0.4996024966239929)	0.4687519371509552	0.4687519371509552	0.4894545078277588	0.16133491694927216	(0.4894545078277588, 1.068290114402771, 0.16133491694927216)	0.05516647547483444	0.05516647547483444	0.49650850892066956	-0.4996024966239929	(0.49650850892066956, 1.090169906616211, -0.4996024966239929)	0.4687519371509552	0.4687519371509552	0.4894545078277588	0.16133491694927216	(0.4894545078277588, 1.068290114402771, 0.16133491694927216)	0.05516647547483444	0.05516647547483444	0.568619579076767	-0.07757565379142761	(0.568619579076767, 0.5909041166305542, -0.07757565379142761)			0.5976745635271072	-0.35938209667801857	(0.5976745635271072, 0.712516725063324, -0.35938209667801857)			4.282356891427696	-3.1158554836153627	3.1158554836153485	100.79688734898133	79.20311265101867	0.5360533446073532	0.24348468706011772	(0.5360533446073532, 0.7382971346378326, 0.24348468706011772)			1.4276549092007826	-1.3375094382957116	1.3375094382956831	96.55006339695443	83.44993660304557	0.2946195751428604	-0.26357248052954674	(0.2946195751428604, 0.14912325143814087, -0.26357248052954674)			0.27751125395298004	0.14674292877316475	(0.27751125395298004, 0.1727752387523651, 0.14674292877316475)			0.5948627591133118	-0.4153030514717102	(0.5948627591133118, 1.1267869472503662, -0.4153030514717102)			0.5423763990402222	0.260151743888855	(0.5423763990402222, 1.131043791770935, 0.260151743888855)		
15	2023-04-10T21:45:48.440085+00:00	0.594120442867279	-0.43507590889930725	(0.594120442867279, 0.5749074816703796, -0.43507590889930725)	0.9991492629051208	0.9991492629051208	0.5448951721191406	0.25461655855178833	(0.5448951721191406, 0.6075583100318909, 0.25461655855178833)	0.9948095679283142	0.9948095679283142	0.5758985877037048	-0.543636679649353	(0.5758985877037048, 0.8745893836021423, -0.543636679649353)	0.7932377457618713	0.7932377457618713	0.5377477407455444	0.33302852511405945	(0.5377477407455444, 0.9000360369682312, 0.33302852511405945)	0.15288227796554565	0.15288227796554565	0.49143871665000916	-0.4842822551727295	(0.49143871665000916, 1.0914641618728638, -0.4842822551727295)	0.46365824341773987	0.46365824341773987	0.4911065995693207	0.16260671615600586	(0.4911065995693207, 1.0660823583602905, 0.16260671615600586)	0.050793107599020004	0.050793107599020004	0.49143871665000916	-0.4842822551727295	(0.49143871665000916, 1.0914641618728638, -0.4842822551727295)	0.46365824341773987	0.46365824341773987	0.4911065995693207	0.16260671615600586	(0.4911065995693207, 1.0660823583602905, 0.16260671615600586)	0.050793107599020004	0.050793107599020004	0.5695078074932098	-0.09022967517375946	(0.5695078074932098, 0.5912328958511353, -0.09022967517375946)			0.5971283465623856	-0.3751714713871479	(0.5971283465623856, 0.7142149358987808, -0.3751714713871479)			4.716456973958657	-3.479528101300673	3.4795281013006445	101.24276725798175	78.75723274201825	0.5381039679050446	0.2403571419417858	(0.5381039679050446, 0.7398412078619003, 0.2403571419417858)			1.5390103053511552	-1.3998883445041912	1.399888344504177	96.69067875286241	83.30932124713759	0.294052317738533	-0.277442391961813	(0.294052317738533, 0.14814628660678864, -0.277442391961813)			0.2792387902736664	0.14156769588589668	(0.2792387902736664, 0.17149625718593597, 0.14156769588589668)			0.594120442867279	-0.43507590889930725	(0.594120442867279, 1.1321372985839844, -0.43507590889930725)			0.5448951721191406	0.25461655855178833	(0.5448951721191406, 1.1366899013519287, 0.25461655855178833)		
16	2023-04-10T21:45:48.497869+00:00	0.5942301750183105	-0.44685858488082886	(0.5942301750183105, 0.57514888048172, -0.44685858488082886)	0.9992073178291321	0.9992073178291321	0.5414823293685913	0.28294697403907776	(0.5414823293685913, 0.6088082194328308, 0.28294697403907776)	0.9950322508811951	0.9950322508811951	0.5805472135543823	-0.5681246519088745	(0.5805472135543823, 0.8788475394248962, -0.5681246519088745)	0.8002464175224304	0.8002464175224304	0.5367243885993958	0.3701639473438263	(0.5367243885993958, 0.9061822295188904, 0.3701639473438263)	0.13878248631954193	0.13878248631954193	0.49595728516578674	-0.4918888211250305	(0.49595728516578674, 1.0972245931625366, -0.4918888211250305)	0.4721282124519348	0.4721282124519348	0.4898764491081238	0.19900934398174286	(0.4898764491081238, 1.0787079334259033, 0.19900934398174286)	0.04671458154916763	0.04671458154916763	0.49595728516578674	-0.4918888211250305	(0.49595728516578674, 1.0972245931625366, -0.4918888211250305)	0.4721282124519348	0.4721282124519348	0.4898764491081238	0.19900934398174286	(0.4898764491081238, 1.0787079334259033, 0.19900934398174286)	0.04671458154916763	0.04671458154916763	0.5678562521934509	-0.08195580542087555	(0.5678562521934509, 0.5919785499572754, -0.08195580542087555)			0.5973490923643112	-0.38488859310746193	(0.5973490923643112, 0.7158185988664627, -0.38488859310746193)			3.849831700896118	-2.579682527926664	2.57968252792665	100.66032863586129	79.33967136413871	0.5350036770105362	0.2625325620174408	(0.5350036770105362, 0.7417678385972977, 0.2625325620174408)			1.8729685838870296	-0.9166458980470367	0.9166458980470225	96.26728830396956	83.73271169603044	0.2939961701631546	-0.28539928421378136	(0.2939961701631546, 0.14690472185611725, -0.28539928421378136)			0.27721981704235077	0.16188789904117584	(0.27721981704235077, 0.17144449055194855, 0.16188789904117584)			0.5942301750183105	-0.44685858488082886	(0.5942301750183105, 1.137827754020691, -0.44685858488082886)			0.5414823293685913	0.28294697403907776	(0.5414823293685913, 1.1406466960906982, 0.28294697403907776)		
17	2023-04-10T21:45:48.556477+00:00	0.5977172255516052	-0.4450705945491791	(0.5977172255516052, 0.5754354596138, -0.4450705945491791)	0.9992601871490479	0.9992601871490479	0.5368816256523132	0.2699776887893677	(0.5368816256523132, 0.6111559271812439, 0.2699776887893677)	0.9952952265739441	0.9952952265739441	0.5831405520439148	-0.5629109144210815	(0.5831405520439148, 0.8864992260932922, -0.5629109144210815)	0.8047815561294556	0.8047815561294556	0.5356643199920654	0.3548505902290344	(0.5356643199920654, 0.9053986072540283, 0.3548505902290344)	0.12630730867385864	0.12630730867385864	0.5002113580703735	-0.49637237191200256	(0.5002113580703735, 1.1060130596160889, -0.49637237191200256)	0.47308966517448425	0.47308966517448425	0.48793110251426697	0.17321309447288513	(0.48793110251426697, 1.084849238395691, 0.17321309447288513)	0.043143853545188904	0.043143853545188904	0.5002113580703735	-0.49637237191200256	(0.5002113580703735, 1.1060130596160889, -0.49637237191200256)	0.47308966517448425	0.47308966517448425	0.48793110251426697	0.17321309447288513	(0.48793110251426697, 1.084849238395691, 0.17321309447288513)	0.043143853545188904	0.043143853545188904	0.5672994256019592	-0.0875464528799057	(0.5672994256019592, 0.593295693397522, -0.0875464528799057)			0.6001908928155899	-0.38313326984643936	(0.6001908928155899, 0.7168109565973282, -0.38313326984643936)			3.6853691848428696	-2.682959034510773	2.682959034510759	100.41323094626468	79.58676905373532	0.5312435626983643	0.25238778442144394	(0.5312435626983643, 0.7435725778341293, 0.25238778442144394)			2.201042774242353	-0.23703590105505157	0.23703590105503736	95.89989004988615	84.10010995011385	0.29638494551181793	-0.28447262197732925	(0.29638494551181793, 0.1463422328233719, -0.28447262197732925)			0.2740788757801056	0.15257874876260757	(0.2740788757801056, 0.1731613129377365, 0.15257874876260757)			0.5977172255516052	-0.4450705945491791	(0.5977172255516052, 1.1409374475479126, -0.4450705945491791)			0.5368816256523132	0.2699776887893677	(0.5368816256523132, 1.1408225297927856, 0.2699776887893677)		
18	2023-04-10T21:45:48.615583+00:00	0.6051104664802551	-0.44044017791748047	(0.6051104664802551, 0.5758630037307739, -0.44044017791748047)	0.9993156790733337	0.9993156790733337	0.534349262714386	0.27275681495666504	(0.534349262714386, 0.6120983958244324, 0.27275681495666504)	0.9955800175666809	0.9955800175666809	0.5854813456535339	-0.558538556098938	(0.5854813456535339, 0.8864814043045044, -0.558538556098938)	0.810233473777771	0.810233473777771	0.5335397720336914	0.35342422127723694	(0.5335397720336914, 0.905237078666687, 0.35342422127723694)	0.11511265486478806	0.11511265486478806	0.502630352973938	-0.4932866096496582	(0.502630352973938, 1.107504963874817, -0.4932866096496582)	0.4744624197483063	0.4744624197483063	0.4864943027496338	0.17092600464820862	(0.4864943027496338, 1.085020661354065, 0.17092600464820862)	0.039892230182886124	0.039892230182886124	0.502630352973938	-0.4932866096496582	(0.502630352973938, 1.107504963874817, -0.4932866096496582)	0.4744624197483063	0.4744624197483063	0.4864943027496338	0.17092600464820862	(0.4864943027496338, 1.085020661354065, 0.17092600464820862)	0.039892230182886124	0.039892230182886124	0.5697298645973206	-0.08384168148040771	(0.5697298645973206, 0.5939806997776031, -0.08384168148040771)			0.6061220914125443	-0.3798278421163559	(0.6061220914125443, 0.7171446084976196, -0.3798278421163559)			4.026173629604386	-3.615923132956752	3.6159231329567376	100.91060014337715	79.08939985662285	0.5290684700012207	0.2546640858054161	(0.5290684700012207, 0.7440649121999741, 0.2546640858054161)			2.133314648893247	-0.15821958813518222	0.1582195881351538	95.77808677517852	84.22191322482148	0.30154360830783844	-0.2808324247598648	(0.30154360830783844, 0.14664989709854126, -0.2808324247598648)			0.2724554240703583	0.15447113662958145	(0.2724554240703583, 0.1740826815366745, 0.15447113662958145)			0.6051104664802551	-0.44044017791748047	(0.6051104664802551, 1.1409894227981567, -0.44044017791748047)			0.534349262714386	0.27275681495666504	(0.534349262714386, 1.1399644613265991, 0.27275681495666504)		
19	2023-04-10T21:45:48.673137+00:00	0.6105671525001526	-0.4401797652244568	(0.6105671525001526, 0.5761797428131104, -0.4401797652244568)	0.999370813369751	0.999370813369751	0.5332416892051697	0.2984239459037781	(0.5332416892051697, 0.6128234267234802, 0.2984239459037781)	0.9958195090293884	0.9958195090293884	0.5910635590553284	-0.5633670687675476	(0.5910635590553284, 0.8864700198173523, -0.5633670687675476)	0.8164779543876648	0.8164779543876648	0.5328102111816406	0.3899330496788025	(0.5328102111816406, 0.9046433568000793, 0.3899330496788025)	0.10492250323295593	0.10492250323295593	0.5041574835777283	-0.4839283525943756	(0.5041574835777283, 1.1080615520477295, -0.4839283525943756)	0.4777715802192688	0.4777715802192688	0.48562583327293396	0.21434442698955536	(0.48562583327293396, 1.0873373746871948, 0.21434442698955536)	0.03696831688284874	0.03696831688284874	0.5041574835777283	-0.4839283525943756	(0.5041574835777283, 1.1080615520477295, -0.4839283525943756)	0.4777715802192688	0.4777715802192688	0.48562583327293396	0.21434442698955536	(0.48562583327293396, 1.0873373746871948, 0.21434442698955536)	0.03696831688284874	0.03696831688284874	0.5719044208526611	-0.07087790966033936	(0.5719044208526611, 0.5945015847682953, -0.07087790966033936)			0.6106660068035126	-0.380431167781353	(0.6106660068035126, 0.717634379863739, -0.380431167781353)			3.6366902440230717	-3.596649609334179	3.5966496093341505	101.31338236544184	78.68661763455816	0.5278837382793427	0.27474508062005043	(0.5278837382793427, 0.7446256428956985, 0.27474508062005043)			2.2431585408762658	-0.0847161181857814	0.08471611818575298	95.73025391287696	84.26974608712304	0.3051847219467163	-0.2798384800553322	(0.3051847219467163, 0.1466352343559265, -0.2798384800553322)			0.27197879552841187	0.17289083823561668	(0.27197879552841187, 0.1746094971895218, 0.17289083823561668)			0.6105671525001526	-0.4401797652244568	(0.6105671525001526, 1.141998291015625, -0.4401797652244568)			0.5332416892051697	0.2984239459037781	(0.5332416892051697, 1.1400322914123535, 0.2984239459037781)		
20	2023-04-10T21:45:48.730406+00:00	0.6126074194908142	-0.4367687702178955	(0.6126074194908142, 0.5762192010879517, -0.4367687702178955)	0.9994159936904907	0.9994159936904907	0.5326336622238159	0.3039175570011139	(0.5326336622238159, 0.6137974262237549, 0.3039175570011139)	0.9959691166877747	0.9959691166877747	0.5936036705970764	-0.5624658465385437	(0.5936036705970764, 0.8877601623535156, -0.5624658465385437)	0.821457028388977	0.821457028388977	0.5319541692733765	0.3946112096309662	(0.5319541692733765, 0.904519259929657, 0.3946112096309662)	0.0956743061542511	0.0956743061542511	0.5122489929199219	-0.48507699370384216	(0.5122489929199219, 1.1136889457702637, -0.48507699370384216)	0.4789642095565796	0.4789642095565796	0.4850570559501648	0.21777120232582092	(0.4850570559501648, 1.0908966064453125, 0.21777120232582092)	0.03423596918582916	0.03423596918582916	0.5122489929199219	-0.48507699370384216	(0.5122489929199219, 1.1136889457702637, -0.48507699370384216)	0.4789642095565796	0.4789642095565796	0.4850570559501648	0.21777120232582092	(0.4850570559501648, 1.0908966064453125, 0.21777120232582092)	0.03423596918582916	0.03423596918582916	0.5726205408573151	-0.06642560660839081	(0.5726205408573151, 0.5950083136558533, -0.06642560660839081)			0.6121237128973007	-0.37841638922691345	(0.6121237128973007, 0.7183036208152771, -0.37841638922691345)			3.295616686950382	-3.490671424958876	3.4906714249588617	100.57669010885368	79.42330989114632	0.5259165614843369	0.2794206291437149	(0.5259165614843369, 0.7457306087017059, 0.2794206291437149)			2.780662659286236	-0.13391497597693558	0.1339149759769498	95.69474154070487	84.30525845929513	0.3067874163389206	-0.2767367660999298	(0.3067874163389206, 0.1460251808166504, -0.2767367660999298)			0.273033931851387	0.17645570635795593	(0.273033931851387, 0.1749655306339264, 0.17645570635795593)			0.6126074194908142	-0.4367687702178955	(0.6126074194908142, 1.1445568799972534, -0.4367687702178955)			0.5326336622238159	0.3039175570011139	(0.5326336622238159, 1.141530156135559, 0.3039175570011139)		
21	2023-04-10T21:45:48.788524+00:00	0.6160125732421875	-0.43600064516067505	(0.6160125732421875, 0.5756064653396606, -0.43600064516067505)	0.9994591474533081	0.9994591474533081	0.5321952700614929	0.3170199692249298	(0.5321952700614929, 0.6140910387039185, 0.3170199692249298)	0.9961267113685608	0.9961267113685608	0.5975290536880493	-0.5574829578399658	(0.5975290536880493, 0.8867496252059937, -0.5574829578399658)	0.8276626467704773	0.8276626467704773	0.5312115550041199	0.40769797563552856	(0.5312115550041199, 0.904023289680481, 0.40769797563552856)	0.08754494786262512	0.08754494786262512	0.5217701196670532	-0.47444361448287964	(0.5217701196670532, 1.1161434650421143, -0.47444361448287964)	0.4827421307563782	0.4827421307563782	0.48468318581581116	0.23133251070976257	(0.48468318581581116, 1.0893757343292236, 0.23133251070976257)	0.03180393949151039	0.03180393949151039	0.5217701196670532	-0.47444361448287964	(0.5217701196670532, 1.1161434650421143, -0.47444361448287964)	0.4827421307563782	0.4827421307563782	0.48468318581581116	0.23133251070976257	(0.48468318581581116, 1.0893757343292236, 0.23133251070976257)	0.03180393949151039	0.03180393949151039	0.5741039216518402	-0.05949033796787262	(0.5741039216518402, 0.5948487520217896, -0.05949033796787262)			0.6146096587181091	-0.37869976460933685	(0.6146096587181091, 0.7177641689777374, -0.37869976460933685)			2.834253862297942	-3.399671492586748	3.399671492586748	99.89008819189455	80.10991180810545	0.5251324623823166	0.2901066988706589	(0.5251324623823166, 0.7458455860614777, 0.2901066988706589)			2.874050217933103	-0.19439887960942315	0.19439887960942315	95.70863743065952	84.29136256934048	0.3094092011451721	-0.2753012031316757	(0.3094092011451721, 0.14564552903175354, -0.2753012031316757)			0.2731604427099228	0.18542325496673584	(0.2731604427099228, 0.17529097199440002, 0.18542325496673584)			0.6160125732421875	-0.43600064516067505	(0.6160125732421875, 1.1442372798919678, -0.43600064516067505)			0.5321952700614929	0.3170199692249298	(0.5321952700614929, 1.1411092281341553, 0.3170199692249298)		
22	2023-04-10T21:45:48.847446+00:00	0.620431125164032	-0.4274117350578308	(0.620431125164032, 0.574956476688385, -0.4274117350578308)	0.9994956851005554	0.9994956851005554	0.5317779779434204	0.3087981641292572	(0.5317779779434204, 0.6146306991577148, 0.3087981641292572)	0.9962999820709229	0.9962999820709229	0.5995085835456848	-0.5490291118621826	(0.5995085835456848, 0.884280264377594, -0.5490291118621826)	0.8324751853942871	0.8324751853942871	0.529552161693573	0.39191675186157227	(0.529552161693573, 0.9037802815437317, 0.39191675186157227)	0.08057863265275955	0.08057863265275955	0.5272797346115112	-0.4705743193626404	(0.5272797346115112, 1.1129953861236572, -0.4705743193626404)	0.484267920255661	0.484267920255661	0.48423081636428833	0.20904377102851868	(0.48423081636428833, 1.0886887311935425, 0.20904377102851868)	0.02975025773048401	0.02975025773048401	0.5272797346115112	-0.4705743193626404	(0.5272797346115112, 1.1129953861236572, -0.4705743193626404)	0.484267920255661	0.484267920255661	0.48423081636428833	0.20904377102851868	(0.48423081636428833, 1.0886887311935425, 0.20904377102851868)	0.02975025773048401	0.02975025773048401	0.5761045515537262	-0.059306785464286804	(0.5761045515537262, 0.5947935879230499, -0.059306785464286804)			0.6178173720836639	-0.3725713640451431	(0.6178173720836639, 0.717009648680687, -0.3725713640451431)			2.8154571520198033	-3.8695703497364065	3.8695703497364207	99.82232708596486	80.17767291403514	0.5245160758495331	0.28424905240535736	(0.5245160758495331, 0.7457831799983978, 0.28424905240535736)			2.7281836245824707	-0.44104285798488263	0.44104285798488263	95.72750838905269	84.27249161094731	0.31282931566238403	-0.2685462385416031	(0.31282931566238403, 0.14542506635189056, -0.2685462385416031)			0.27315089106559753	0.17894819378852844	(0.27315089106559753, 0.17616286873817444, 0.17894819378852844)			0.620431125164032	-0.4274117350578308	(0.620431125164032, 1.1431691646575928, -0.4274117350578308)			0.5317779779434204	0.3087981641292572	(0.5317779779434204, 1.1392406225204468, 0.3087981641292572)		
23	2023-04-10T21:45:48.906492+00:00	0.6227157115936279	-0.41643619537353516	(0.6227157115936279, 0.5739718079566956, -0.41643619537353516)	0.9995302557945251	0.9995302557945251	0.5316047072410583	0.31426697969436646	(0.5316047072410583, 0.61476731300354, 0.31426697969436646)	0.9964078664779663	0.9964078664779663	0.6034659743309021	-0.543128252029419	(0.6034659743309021, 0.880303144454956, -0.543128252029419)	0.8386240601539612	0.8386240601539612	0.5267078280448914	0.3923017382621765	(0.5267078280448914, 0.9014298319816589, 0.3923017382621765)	0.07435476779937744	0.07435476779937744	0.5314226150512695	-0.4672946035861969	(0.5314226150512695, 1.1119964122772217, -0.4672946035861969)	0.4905230700969696	0.4905230700969696	0.4856586456298828	0.21166281402111053	(0.4856586456298828, 1.0799407958984375, 0.21166281402111053)	0.02790362574160099	0.02790362574160099	0.5314226150512695	-0.4672946035861969	(0.5314226150512695, 1.1119964122772217, -0.4672946035861969)	0.4905230700969696	0.4905230700969696	0.4856586456298828	0.21166281402111053	(0.4856586456298828, 1.0799407958984375, 0.21166281402111053)	0.02790362574160099	0.02790362574160099	0.5771602094173431	-0.05108460783958435	(0.5771602094173431, 0.5943695604801178, -0.05108460783958435)			0.6194920241832733	-0.36467793583869934	(0.6194920241832733, 0.7158935815095901, -0.36467793583869934)			2.2944922821697844	-3.5957156415057625	3.5957156415057625	99.63033668082751	80.36966331917249	0.5243092775344849	0.2886750027537346	(0.5243092775344849, 0.7453644871711731, 0.2886750027537346)			2.218684988010523	-0.9786533154441059	0.9786533154441202	95.64091556640449	84.35908443359551	0.3145815432071686	-0.2599763572216034	(0.3145815432071686, 0.14506413042545319, -0.2599763572216034)			0.27309778332710266	0.1827254667878151	(0.27309778332710266, 0.17678648233413696, 0.1827254667878151)			0.6227157115936279	-0.41643619537353516	(0.6227157115936279, 1.141658902168274, -0.41643619537353516)			0.5316047072410583	0.31426697969436646	(0.5316047072410583, 1.1371560096740723, 0.31426697969436646)		
24	2023-04-10T21:45:48.966545+00:00	0.6229667067527771	-0.4106725752353668	(0.6229667067527771, 0.5733229517936707, -0.4106725752353668)	0.9995620846748352	0.9995620846748352	0.5312401652336121	0.32050058245658875	(0.5312401652336121, 0.6148538589477539, 0.32050058245658875)	0.9964605569839478	0.9964605569839478	0.6063042283058167	-0.5404554605484009	(0.6063042283058167, 0.8783023953437805, -0.5404554605484009)	0.845250129699707	0.845250129699707	0.5256948471069336	0.39864400029182434	(0.5256948471069336, 0.9004991054534912, 0.39864400029182434)	0.06844647973775864	0.06844647973775864	0.5326455235481262	-0.4657211899757385	(0.5326455235481262, 1.1111762523651123, -0.4657211899757385)	0.5005297660827637	0.5005297660827637	0.48531967401504517	0.22577586770057678	(0.48531967401504517, 1.0824992656707764, 0.22577586770057678)	0.0260251946747303	0.0260251946747303	0.5326455235481262	-0.4657211899757385	(0.5326455235481262, 1.1111762523651123, -0.4657211899757385)	0.5005297660827637	0.5005297660827637	0.48531967401504517	0.22577586770057678	(0.48531967401504517, 1.0824992656707764, 0.22577586770057678)	0.0260251946747303	0.0260251946747303	0.5771034359931946	-0.04508599638938904	(0.5771034359931946, 0.5940884053707123, -0.04508599638938904)			0.6195997297763824	-0.3605811446905136	(0.6195997297763824, 0.7151540070772171, -0.3605811446905136)			1.7673229313744514	-3.1272320364899855	3.1272320364899713	99.53268106390766	80.46731893609234	0.5240297764539719	0.293576255440712	(0.5240297764539719, 0.7451107501983643, 0.293576255440712)			2.0562217956895097	-1.1121607080310838	1.112160708031098	95.60818614012231	84.39181385987769	0.3148503303527832	-0.2554277181625366	(0.3148503303527832, 0.14483042061328888, -0.2554277181625366)			0.27283047139644623	0.18717461824417114	(0.27283047139644623, 0.1771700382232666, 0.18717461824417114)			0.6229667067527771	-0.4106725752353668	(0.6229667067527771, 1.1406471729278564, -0.4106725752353668)			0.5312401652336121	0.32050058245658875	(0.5312401652336121, 1.1358814239501953, 0.32050058245658875)		
25	2023-04-10T21:45:49.024941+00:00	0.6225382089614868	-0.41101640462875366	(0.6225382089614868, 0.5728012323379517, -0.41101640462875366)	0.9995890259742737	0.9995890259742737	0.531663715839386	0.31748202443122864	(0.531663715839386, 0.614535927772522, 0.31748202443122864)	0.9965447187423706	0.9965447187423706	0.6064174771308899	-0.5379216074943542	(0.6064174771308899, 0.8784799575805664, -0.5379216074943542)	0.8489035964012146	0.8489035964012146	0.5257302522659302	0.3942185342311859	(0.5257302522659302, 0.9002366662025452, 0.3942185342311859)	0.06319279223680496	0.06319279223680496	0.534397304058075	-0.45037952065467834	(0.534397304058075, 1.1119862794876099, -0.45037952065467834)	0.500905454158783	0.500905454158783	0.4851074814796448	0.22119548916816711	(0.4851074814796448, 1.0840846300125122, 0.22119548916816711)	0.024305472150444984	0.024305472150444984	0.534397304058075	-0.45037952065467834	(0.534397304058075, 1.1119862794876099, -0.45037952065467834)	0.500905454158783	0.500905454158783	0.4851074814796448	0.22119548916816711	(0.4851074814796448, 1.0840846300125122, 0.22119548916816711)	0.024305472150444984	0.024305472150444984	0.5771009624004364	-0.04676719009876251	(0.5771009624004364, 0.5936685800552368, -0.04676719009876251)			0.6191874295473099	-0.36133087426424026	(0.6191874295473099, 0.7146113514900208, -0.36133087426424026)			1.6652704048291582	-3.0188395459334885	3.0188395459335027	99.2840586604839	80.7159413395161	0.5244469493627548	0.2918010577559471	(0.5244469493627548, 0.7447025179862976, 0.2918010577559471)			1.9836208693399726	-1.1897538602258066	1.1897538602258066	95.66242793535444	84.33757206464556	0.31461988389492035	-0.25519373267889023	(0.31461988389492035, 0.14459049701690674, -0.25519373267889023)			0.27304862439632416	0.18442197889089584	(0.27304862439632416, 0.17710137367248535, 0.18442197889089584)			0.6225382089614868	-0.41101640462875366	(0.6225382089614868, 1.140041708946228, -0.41101640462875366)			0.531663715839386	0.31748202443122864	(0.531663715839386, 1.1352022886276245, 0.31748202443122864)		
26	2023-04-10T21:45:49.083283+00:00	0.6218070387840271	-0.41420847177505493	(0.6218070387840271, 0.5722962021827698, -0.41420847177505493)	0.999616801738739	0.999616801738739	0.5340792536735535	0.31498733162879944	(0.5340792536735535, 0.6128873229026794, 0.31498733162879944)	0.9967268109321594	0.9967268109321594	0.6062566637992859	-0.5328238606452942	(0.6062566637992859, 0.8785623908042908, -0.5328238606452942)	0.8519042134284973	0.8519042134284973	0.5265786647796631	0.3782777190208435	(0.5265786647796631, 0.8985734581947327, 0.3782777190208435)	0.05917859449982643	0.05917859449982643	0.5352542400360107	-0.4387575685977936	(0.5352542400360107, 1.1122790575027466, -0.4387575685977936)	0.5011265873908997	0.5011265873908997	0.4851655960083008	0.20564500987529755	(0.4851655960083008, 1.0854461193084717, 0.20564500987529755)	0.02311152033507824	0.02311152033507824	0.5352542400360107	-0.4387575685977936	(0.5352542400360107, 1.1122790575027466, -0.4387575685977936)	0.5011265873908997	0.5011265873908997	0.4851655960083008	0.20564500987529755	(0.4851655960083008, 1.0854461193084717, 0.20564500987529755)	0.02311152033507824	0.02311152033507824	0.5779431462287903	-0.04961057007312775	(0.5779431462287903, 0.5925917625427246, -0.04961057007312775)			0.6186494082212448	-0.3638530522584915	(0.6186494082212448, 0.7140904515981674, -0.3638530522584915)			1.6309280603173306	-2.906642748874347	2.906642748874333	99.10636827199865	80.89363172800135	0.5265389978885651	0.2900635413825512	(0.5265389978885651, 0.7434089332818985, 0.2900635413825512)			1.8023770851137613	-1.5039350237317421	1.5039350237317421	95.90953181217081	84.09046818782919	0.31406114995479584	-0.2574596554040909	(0.31406114995479584, 0.14435385167598724, -0.2574596554040909)			0.27457988262176514	0.18241745606064796	(0.27457988262176514, 0.17592205107212067, 0.18241745606064796)			0.6218070387840271	-0.41420847177505493	(0.6218070387840271, 1.1394731998443604, -0.41420847177505493)			0.5340792536735535	0.31498733162879944	(0.5340792536735535, 1.1349737644195557, 0.31498733162879944)		
27	2023-04-10T21:45:49.143450+00:00	0.6216080784797668	-0.4180939793586731	(0.6216080784797668, 0.5708820819854736, -0.4180939793586731)	0.9996405243873596	0.9996405243873596	0.535468339920044	0.3108304440975189	(0.535468339920044, 0.6104475259780884, 0.3108304440975189)	0.9968778491020203	0.9968778491020203	0.6061636209487915	-0.5331751108169556	(0.6061636209487915, 0.8786415457725525, -0.5331751108169556)	0.8538968563079834	0.8538968563079834	0.5278244018554688	0.37759801745414734	(0.5278244018554688, 0.8962017893791199, 0.37759801745414734)	0.055526163429021835	0.055526163429021835	0.5363775491714478	-0.4390123784542084	(0.5363775491714478, 1.1109970808029175, -0.4390123784542084)	0.49854061007499695	0.49854061007499695	0.4889785647392273	0.20496602356433868	(0.4889785647392273, 1.0794192552566528, 0.20496602356433868)	0.022087689489126205	0.022087689489126205	0.5363775491714478	-0.4390123784542084	(0.5363775491714478, 1.1109970808029175, -0.4390123784542084)	0.49854061007499695	0.49854061007499695	0.4889785647392273	0.20496602356433868	(0.4889785647392273, 1.0794192552566528, 0.20496602356433868)	0.022087689489126205	0.022087689489126205	0.5785382091999054	-0.05363176763057709	(0.5785382091999054, 0.590664803981781, -0.05363176763057709)			0.6185261756181717	-0.36676957458257675	(0.6185261756181717, 0.7122527360916138, -0.36676957458257675)			1.6240352929080473	-2.872894632831432	2.872894632831418	98.96737013886366	81.03262986113634	0.5277788639068604	0.2869437038898468	(0.5277788639068604, 0.7409222722053528, 0.2869437038898468)			1.8405031360727833	-1.5322989949166868	1.5322989949166868	95.66130862481565	84.33869137518435	0.3138859421014786	-0.2603713944554329	(0.3138859421014786, 0.14407038688659668, -0.2603713944554329)			0.27542364597320557	0.17930196225643158	(0.27542364597320557, 0.17474901676177979, 0.17930196225643158)			0.6216080784797668	-0.4180939793586731	(0.6216080784797668, 1.1363646984100342, -0.4180939793586731)			0.535468339920044	0.3108304440975189	(0.535468339920044, 1.132346510887146, 0.3108304440975189)		
28	2023-04-10T21:45:49.204252+00:00	0.6179454326629639	-0.41853421926498413	(0.6179454326629639, 0.5705311894416809, -0.41853421926498413)	0.9996634125709534	0.9996634125709534	0.5391481518745422	0.30888912081718445	(0.5391481518745422, 0.6068275570869446, 0.30888912081718445)	0.9970405101776123	0.9970405101776123	0.6034332513809204	-0.527871310710907	(0.6034332513809204, 0.8792417645454407, -0.527871310710907)	0.8552169799804688	0.8552169799804688	0.5318737030029297	0.36808761954307556	(0.5318737030029297, 0.8951775431632996, 0.36808761954307556)	0.05181168392300606	0.05181168392300606	0.5339134931564331	-0.4181569516658783	(0.5339134931564331, 1.1119048595428467, -0.4181569516658783)	0.4942420721054077	0.4942420721054077	0.49346423149108887	0.20227594673633575	(0.49346423149108887, 1.0782021284103394, 0.20227594673633575)	0.020795220509171486	0.020795220509171486	0.5339134931564331	-0.4181569516658783	(0.5339134931564331, 1.1119048595428467, -0.4181569516658783)	0.4942420721054077	0.4942420721054077	0.49346423149108887	0.20227594673633575	(0.49346423149108887, 1.0782021284103394, 0.20227594673633575)	0.020795220509171486	0.020795220509171486	0.578546792268753	-0.05482254922389984	(0.578546792268753, 0.5886793732643127, -0.05482254922389984)			0.6153248846530914	-0.36648034304380417	(0.6153248846530914, 0.7116001397371292, -0.36648034304380417)			1.6272122101559319	-2.691436997691838	2.6914369976918238	98.82303348608711	81.17696651391289	0.5307539999485016	0.2848799303174019	(0.5307539999485016, 0.7378099411725998, 0.2848799303174019)			2.2217068228179073	-1.44514253581184	1.44514253581184	95.53561153556743	84.46438846443257	0.31159326434135437	-0.261320985853672	(0.31159326434135437, 0.14419664442539215, -0.261320985853672)			0.27796822786331177	0.1784537509083748	(0.27796822786331177, 0.17243139445781708, 0.1784537509083748)			0.6179454326629639	-0.41853421926498413	(0.6179454326629639, 1.1348069906234741, -0.41853421926498413)			0.5391481518745422	0.30888912081718445	(0.5391481518745422, 1.1307570934295654, 0.30888912081718445)		
29	2023-04-10T21:45:49.265228+00:00	0.6147399544715881	-0.41321271657943726	(0.6147399544715881, 0.5699759721755981, -0.41321271657943726)	0.9996868371963501	0.9996868371963501	0.5416168570518494	0.30765974521636963	(0.5416168570518494, 0.6040003895759583, 0.30765974521636963)	0.997188925743103	0.997188925743103	0.6022395491600037	-0.5224229097366333	(0.6022395491600037, 0.8798471689224243, -0.5224229097366333)	0.8599446415901184	0.8599446415901184	0.5328097343444824	0.3680998980998993	(0.5328097343444824, 0.8939469456672668, 0.3680998980998993)	0.048730187118053436	0.048730187118053436	0.5318998694419861	-0.4192926287651062	(0.5318998694419861, 1.112160325050354, -0.4192926287651062)	0.4997508227825165	0.4997508227825165	0.49701112508773804	0.20093178749084473	(0.49701112508773804, 1.0764293670654297, 0.20093178749084473)	0.019849849864840508	0.019849849864840508	0.5318998694419861	-0.4192926287651062	(0.5318998694419861, 1.112160325050354, -0.4192926287651062)	0.4997508227825165	0.4997508227825165	0.49701112508773804	0.20093178749084473	(0.49701112508773804, 1.0764293670654297, 0.20093178749084473)	0.019849849864840508	0.019849849864840508	0.5781784057617188	-0.052776485681533813	(0.5781784057617188, 0.5869881808757782, -0.052776485681533813)			0.6125751435756683	-0.36121412366628647	(0.6125751435756683, 0.7107824683189392, -0.36121412366628647)			1.429279365424435	-2.3100963719775507	2.3100963719775223	98.68701180836013	81.31298819163987	0.5326564311981201	0.2826770022511482	(0.5326564311981201, 0.7353497296571732, 0.2826770022511482)			2.1627495092764946	-1.739823580096342	1.7398235800963278	95.39375472291287	84.60624527708713	0.30953478813171387	-0.2586049512028694	(0.30953478813171387, 0.144181489944458, -0.2586049512028694)			0.27976885437965393	0.17881261557340622	(0.27976885437965393, 0.17065085470676422, 0.17881261557340622)			0.6147399544715881	-0.41321271657943726	(0.6147399544715881, 1.1332019567489624, -0.41321271657943726)			0.5416168570518494	0.30765974521636963	(0.5416168570518494, 1.1293977499008179, 0.30765974521636963)		
30	2023-04-10T21:45:49.325321+00:00	0.6122125387191772	-0.4118809700012207	(0.6122125387191772, 0.5693801045417786, -0.4118809700012207)	0.9997076392173767	0.9997076392173767	0.5441344976425171	0.3074053227901459	(0.5441344976425171, 0.6026156544685364, 0.3074053227901459)	0.9972913861274719	0.9972913861274719	0.6018595695495605	-0.5231252908706665	(0.6018595695495605, 0.8800079822540283, -0.5231252908706665)	0.8644412159919739	0.8644412159919739	0.5352184176445007	0.37031710147857666	(0.5352184176445007, 0.8904948830604553, 0.37031710147857666)	0.045614100992679596	0.045614100992679596	0.531378448009491	-0.42519721388816833	(0.531378448009491, 1.1121536493301392, -0.42519721388816833)	0.5077431201934814	0.5077431201934814	0.5000180006027222	0.20722632110118866	(0.5000180006027222, 1.0745081901550293, 0.20722632110118866)	0.018800344318151474	0.018800344318151474	0.531378448009491	-0.42519721388816833	(0.531378448009491, 1.1121536493301392, -0.42519721388816833)	0.5077431201934814	0.5077431201934814	0.5000180006027222	0.20722632110118866	(0.5000180006027222, 1.0745081901550293, 0.20722632110118866)	0.018800344318151474	0.018800344318151474	0.5781735181808472	-0.052237823605537415	(0.5781735181808472, 0.5859978795051575, -0.052237823605537415)			0.6106809973716736	-0.35913433879613876	(0.6106809973716736, 0.7101557403802872, -0.35913433879613876)			1.2856003453525204	-1.9089141243391907	1.9089141243391907	98.47067760831365	81.52932239168635	0.5353040546178818	0.2813955023884773	(0.5353040546178818, 0.7341462522745132, 0.2813955023884773)			2.0668730937403836	-1.7739748239497999	1.7739748239497999	95.34096896951144	84.65903103048856	0.3076378107070923	-0.2586871162056923	(0.3076378107070923, 0.14391441643238068, -0.2586871162056923)			0.28089769184589386	0.17971248179674149	(0.28089769184589386, 0.16977722942829132, 0.17971248179674149)			0.6122125387191772	-0.4118809700012207	(0.6122125387191772, 1.132482647895813, -0.4118809700012207)			0.5441344976425171	0.3074053227901459	(0.5441344976425171, 1.1287380456924438, 0.3074053227901459)		
31	2023-04-10T21:45:49.385543+00:00	0.6102964282035828	-0.408180296421051	(0.6102964282035828, 0.5685471296310425, -0.408180296421051)	0.9997266530990601	0.9997266530990601	0.5496254563331604	0.30992263555526733	(0.5496254563331604, 0.6008004546165466, 0.30992263555526733)	0.9973599910736084	0.9973599910736084	0.601810097694397	-0.5235598683357239	(0.601810097694397, 0.8811301589012146, -0.5235598683357239)	0.8692275881767273	0.8692275881767273	0.5366983413696289	0.3740755021572113	(0.5366983413696289, 0.8892890214920044, 0.3740755021572113)	0.042745694518089294	0.042745694518089294	0.5287228226661682	-0.42826756834983826	(0.5287228226661682, 1.115155577659607, -0.42826756834983826)	0.5184088945388794	0.5184088945388794	0.5008596181869507	0.210308238863945	(0.5008596181869507, 1.0745424032211304, 0.210308238863945)	0.01787419058382511	0.01787419058382511	0.5287228226661682	-0.42826756834983826	(0.5287228226661682, 1.115155577659607, -0.42826756834983826)	0.5184088945388794	0.5184088945388794	0.5008596181869507	0.210308238863945	(0.5008596181869507, 1.0745424032211304, 0.210308238863945)	0.01787419058382511	0.01787419058382511	0.5799609422683716	-0.049128830432891846	(0.5799609422683716, 0.5846737921237946, -0.049128830432891846)			0.6092418879270554	-0.35576389729976654	(0.6092418879270554, 0.7092402875423431, -0.35576389729976654)			1.125701472780321	-1.555143647735548	1.555143647735548	98.48794466995919	81.51205533004081	0.5400385111570358	0.2826794423162937	(0.5400385111570358, 0.7325271815061569, 0.2826794423162937)			1.5968968189501709	-2.5656960993456437	2.5656960993456153	95.87718731795854	84.12281268204146	0.3062027543783188	-0.25650654733181	(0.3062027543783188, 0.14358040690422058, -0.25650654733181)			0.2843996733427048	0.18220451101660728	(0.2843996733427048, 0.16867350041866302, 0.18220451101660728)			0.6102964282035828	-0.408180296421051	(0.6102964282035828, 1.1313197612762451, -0.408180296421051)			0.5496254563331604	0.30992263555526733	(0.5496254563331604, 1.1277073621749878, 0.30992263555526733)		
32	2023-04-10T21:45:49.448937+00:00	0.6074633002281189	-0.40889501571655273	(0.6074633002281189, 0.5682395696640015, -0.40889501571655273)	0.9997365474700928	0.9997365474700928	0.5560123324394226	0.318352073431015	(0.5560123324394226, 0.5987344980239868, 0.318352073431015)	0.9973753094673157	0.9973753094673157	0.5977210402488708	-0.534453272819519	(0.5977210402488708, 0.8811619877815247, -0.534453272819519)	0.8700452446937561	0.8700452446937561	0.5525952577590942	0.39078620076179504	(0.5525952577590942, 0.888293445110321, 0.39078620076179504)	0.03986416757106781	0.03986416757106781	0.5244582891464233	-0.44063472747802734	(0.5244582891464233, 1.1135891675949097, -0.44063472747802734)	0.521420955657959	0.521420955657959	0.5076379179954529	0.23818528652191162	(0.5076379179954529, 1.074581265449524, 0.23818528652191162)	0.016850022599101067	0.016850022599101067	0.5244582891464233	-0.44063472747802734	(0.5244582891464233, 1.1135891675949097, -0.44063472747802734)	0.521420955657959	0.521420955657959	0.5076379179954529	0.23818528652191162	(0.5076379179954529, 1.074581265449524, 0.23818528652191162)	0.016850022599101067	0.016850022599101067	0.5817378163337708	-0.04527147114276886	(0.5817378163337708, 0.5834870338439941, -0.04527147114276886)			0.6070417910814285	-0.3563164137303829	(0.6070417910814285, 0.7090055644512177, -0.3563164137303829)			1.6116562472668932	-1.7832219935734628	1.7832219935734486	98.65429037759417	81.34570962240583	0.5458424687385559	0.28901955112814903	(0.5458424687385559, 0.7309493720531464, 0.28901955112814903)			3.7223710764428404	-0.6761140407590034	0.6761140407589892	95.8047268653523	84.1952731346477	0.3041531592607498	-0.2570261098444462	(0.3041531592607498, 0.14335379004478455, -0.2570261098444462)			0.288176029920578	0.1885085590183735	(0.288176029920578, 0.16715237498283386, 0.1885085590183735)			0.6074633002281189	-0.40889501571655273	(0.6074633002281189, 1.1313035488128662, -0.40889501571655273)			0.5560123324394226	0.318352073431015	(0.5560123324394226, 1.127593994140625, 0.318352073431015)		
33	2023-04-10T21:45:49.512596+00:00	0.6059905290603638	-0.40774282813072205	(0.6059905290603638, 0.5673134326934814, -0.40774282813072205)	0.9997475147247314	0.9997475147247314	0.558749794960022	0.31957951188087463	(0.558749794960022, 0.5965091586112976, 0.31957951188087463)	0.9974038004875183	0.9974038004875183	0.596442699432373	-0.531862735748291	(0.596442699432373, 0.8769169449806213, -0.531862735748291)	0.8731034994125366	0.8731034994125366	0.5573316216468811	0.3953953981399536	(0.5573316216468811, 0.8854413628578186, 0.3953953981399536)	0.03727585822343826	0.03727585822343826	0.5234336853027344	-0.43711361289024353	(0.5234336853027344, 1.105365514755249, -0.43711361289024353)	0.5270617008209229	0.5270617008209229	0.509684145450592	0.24201028048992157	(0.509684145450592, 1.0605623722076416, 0.24201028048992157)	0.015937764197587967	0.015937764197587967	0.5234336853027344	-0.43711361289024353	(0.5234336853027344, 1.105365514755249, -0.43711361289024353)	0.5270617008209229	0.5270617008209229	0.509684145450592	0.24201028048992157	(0.509684145450592, 1.0605623722076416, 0.24201028048992157)	0.015937764197587967	0.015937764197587967	0.5823701620101929	-0.044081658124923706	(0.5823701620101929, 0.5819112956523895, -0.044081658124923706)			0.6056491732597351	-0.3554762974381447	(0.6056491732597351, 0.7080531120300293, -0.3554762974381447)			1.6274113339755445	-1.766378599131059	1.7663785991310306	98.72323371707516	81.27676628292484	0.5481170415878296	0.2899621054530144	(0.5481170415878296, 0.7288786917924881, 0.2899621054530144)			4.3112727922311365	-0.2812240786969795	0.28122407869699373	96.03561875171945	83.96438124828055	0.30333662033081055	-0.2561379447579384	(0.30333662033081055, 0.14291703701019287, -0.2561379447579384)			0.29000765085220337	0.18940716236829758	(0.29000765085220337, 0.1658850461244583, 0.18940716236829758)			0.6059905290603638	-0.40774282813072205	(0.6059905290603638, 1.1302721500396729, -0.40774282813072205)			0.558749794960022	0.31957951188087463	(0.558749794960022, 1.1259872913360596, 0.31957951188087463)		
34	2023-04-10T21:45:49.587055+00:00	0.6054882407188416	-0.40302103757858276	(0.6054882407188416, 0.5665394067764282, -0.40302103757858276)	0.9997572302818298	0.9997572302818298	0.5594803690910339	0.3180299997329712	(0.5594803690910339, 0.5953338146209717, 0.3180299997329712)	0.9974347949028015	0.9974347949028015	0.5956635475158691	-0.525905430316925	(0.5956635475158691, 0.8732832074165344, -0.525905430316925)	0.8758009076118469	0.8758009076118469	0.5579173564910889	0.39304450154304504	(0.5579173564910889, 0.8835334181785583, 0.39304450154304504)	0.035006433725357056	0.035006433725357056	0.5231682658195496	-0.4337071478366852	(0.5231682658195496, 1.099440336227417, -0.4337071478366852)	0.5302101373672485	0.5302101373672485	0.5084306001663208	0.23548731207847595	(0.5084306001663208, 1.0526797771453857, 0.23548731207847595)	0.015157235786318779	0.015157235786318779	0.5231682658195496	-0.4337071478366852	(0.5231682658195496, 1.099440336227417, -0.4337071478366852)	0.5302101373672485	0.5302101373672485	0.5084306001663208	0.23548731207847595	(0.5084306001663208, 1.0526797771453857, 0.23548731207847595)	0.015157235786318779	0.015157235786318779	0.5824843049049377	-0.042495518922805786	(0.5824843049049377, 0.5809366106987, -0.042495518922805786)			0.6050588488578796	-0.35152406617999077	(0.6050588488578796, 0.7072931230068207, -0.35152406617999077)			1.6597091851838854	-1.8344986382006851	1.834498638200671	98.78136699615102	81.21863300384898	0.5486063212156296	0.2883966453373432	(0.5486063212156296, 0.7277397811412811, 0.2883966453373432)			4.384236193802792	-0.3107330690167913	0.31073306901680553	96.3690922923612	83.6309077076388	0.3031735122203827	-0.2530074901878834	(0.3031735122203827, 0.14251598715782166, -0.2530074901878834)			0.2906142324209213	0.18864835426211357	(0.2906142324209213, 0.1652609407901764, 0.18864835426211357)			0.6054882407188416	-0.40302103757858276	(0.6054882407188416, 1.129554271697998, -0.40302103757858276)			0.5594803690910339	0.3180299997329712	(0.5594803690910339, 1.1249576807022095, 0.3180299997329712)		
35	2023-04-10T21:45:49.646680+00:00	0.6045889854431152	-0.3934260308742523	(0.6045889854431152, 0.5657979249954224, -0.3934260308742523)	0.9997670650482178	0.9997670650482178	0.5592741370201111	0.3177865743637085	(0.5592741370201111, 0.5945473909378052, 0.3177865743637085)	0.9974496960639954	0.9974496960639954	0.5955425500869751	-0.5162625908851624	(0.5955425500869751, 0.8709022998809814, -0.5162625908851624)	0.8798061013221741	0.8798061013221741	0.5567324757575989	0.38793057203292847	(0.5567324757575989, 0.8794366121292114, 0.38793057203292847)	0.03317251428961754	0.03317251428961754	0.5230250954627991	-0.4336729645729065	(0.5230250954627991, 1.0972588062286377, -0.4336729645729065)	0.5387206673622131	0.5387206673622131	0.5075997114181519	0.23029477894306183	(0.5075997114181519, 1.0485588312149048, 0.23029477894306183)	0.01452404260635376	0.01452404260635376	0.5230250954627991	-0.4336729645729065	(0.5230250954627991, 1.0972588062286377, -0.4336729645729065)	0.5387206673622131	0.5387206673622131	0.5075997114181519	0.23029477894306183	(0.5075997114181519, 1.0485588312149048, 0.23029477894306183)	0.01452404260635376	0.01452404260635376	0.5819315612316132	-0.03781972825527191	(0.5819315612316132, 0.5801726579666138, -0.03781972825527191)			0.6042889654636383	-0.34405485913157463	(0.6042889654636383, 0.705993115901947, -0.34405485913157463)			1.5757255988674217	-1.6983393079483875	1.6983393079483733	98.72516934723573	81.27483065276427	0.5484418720006943	0.2879374027252197	(0.5484418720006943, 0.7264232635498047, 0.2879374027252197)			4.1845701475928365	-0.5111551752595886	0.5111551752595744	96.49331684553454	83.50668315446546	0.30259451270103455	-0.24608418717980385	(0.30259451270103455, 0.14270377159118652, -0.24608418717980385)			0.29046933352947235	0.18874245882034302	(0.29046933352947235, 0.16539782285690308, 0.18874245882034302)			0.6045889854431152	-0.3934260308742523	(0.6045889854431152, 1.126578688621521, -0.3934260308742523)			0.5592741370201111	0.3177865743637085	(0.5592741370201111, 1.1220508813858032, 0.3177865743637085)		
36	2023-04-10T21:45:49.707163+00:00	0.603354811668396	-0.39454197883605957	(0.603354811668396, 0.5657971501350403, -0.39454197883605957)	0.9997730255126953	0.9997730255126953	0.5628989934921265	0.312843918800354	(0.5628989934921265, 0.5937349796295166, 0.312843918800354)	0.9975343942642212	0.9975343942642212	0.5898259878158569	-0.5164923667907715	(0.5898259878158569, 0.8715454936027527, -0.5164923667907715)	0.8811684846878052	0.8811684846878052	0.5576639771461487	0.3761257529258728	(0.5576639771461487, 0.8786696791648865, 0.3761257529258728)	0.03169096261262894	0.03169096261262894	0.5157309174537659	-0.4338398873806	(0.5157309174537659, 1.097678542137146, -0.4338398873806)	0.5356794595718384	0.5356794595718384	0.5070087313652039	0.22412768006324768	(0.5070087313652039, 1.049503207206726, 0.22412768006324768)	0.013906462118029594	0.013906462118029594	0.5157309174537659	-0.4338398873806	(0.5157309174537659, 1.097678542137146, -0.4338398873806)	0.5356794595718384	0.5356794595718384	0.5070087313652039	0.22412768006324768	(0.5070087313652039, 1.049503207206726, 0.22412768006324768)	0.013906462118029594	0.013906462118029594	0.5831269025802612	-0.04084903001785278	(0.5831269025802612, 0.5797660648822784, -0.04084903001785278)			0.6031897068023682	-0.3442833460867405	(0.6031897068023682, 0.705921545624733, -0.3442833460867405)			2.4660742717886706	-2.5335843408929577	2.5335843408929293	99.35506632922707	80.64493367077293	0.5517365038394928	0.283619724214077	(0.5517365038394928, 0.7257699072360992, 0.283619724214077)			3.779846519268972	-1.0525590611646578	1.0525590611646578	96.99120190773175	83.00879809226825	0.30184251070022583	-0.24752962216734886	(0.30184251070022583, 0.14277417957782745, -0.24752962216734886)			0.2926119863986969	0.185646153986454	(0.2926119863986969, 0.16483256220817566, 0.185646153986454)			0.603354811668396	-0.39454197883605957	(0.603354811668396, 1.126294732093811, -0.39454197883605957)			0.5628989934921265	0.312843918800354	(0.5628989934921265, 1.1218746900558472, 0.312843918800354)		
37	2023-04-10T21:45:49.767423+00:00	0.6009142994880676	-0.4089724123477936	(0.6009142994880676, 0.5660627484321594, -0.4089724123477936)	0.9997656941413879	0.9997656941413879	0.5663800239562988	0.30664554238319397	(0.5663800239562988, 0.5929930210113525, 0.30664554238319397)	0.9975823760032654	0.9975823760032654	0.5741540193557739	-0.5381711721420288	(0.5741540193557739, 0.871761679649353, -0.5381711721420288)	0.8746890425682068	0.8746890425682068	0.557303249835968	0.36307263374328613	(0.557303249835968, 0.8785704374313354, 0.36307263374328613)	0.03007700853049755	0.03007700853049755	0.49410223960876465	-0.4504721164703369	(0.49410223960876465, 1.0941861867904663, -0.4504721164703369)	0.5235108733177185	0.5235108733177185	0.5066623687744141	0.21049931645393372	(0.5066623687744141, 1.0559329986572266, 0.21049931645393372)	0.01331820897758007	0.01331820897758007	0.49410223960876465	-0.4504721164703369	(0.49410223960876465, 1.0941861867904663, -0.4504721164703369)	0.5235108733177185	0.5235108733177185	0.5066623687744141	0.21049931645393372	(0.5066623687744141, 1.0559329986572266, 0.21049931645393372)	0.01331820897758007	0.01331820897758007	0.5836471617221832	-0.051163434982299805	(0.5836471617221832, 0.579527884721756, -0.051163434982299805)			0.6013460457324982	-0.3551402725279331	(0.6013460457324982, 0.7059892266988754, -0.3551402725279331)			5.179593440490123	-5.002806606216893	5.002806606216893	101.4337415043699	78.5662584956301	0.5548636764287949	0.2790067046880722	(0.5548636764287949, 0.7252189218997955, 0.2790067046880722)			3.1571998860639496	-1.8204724877781189	1.8204724877781189	97.35036635143217	82.64963364856783	0.30002540349960327	-0.25831834599375725	(0.30002540349960327, 0.1431048959493637, -0.25831834599375725)			0.2947063595056534	0.18096160888671875	(0.2947063595056534, 0.16427060961723328, 0.18096160888671875)			0.6009142994880676	-0.4089724123477936	(0.6009142994880676, 1.1257686614990234, -0.4089724123477936)			0.5663800239562988	0.30664554238319397	(0.5663800239562988, 1.1218966245651245, 0.30664554238319397)		
38	2023-04-10T21:45:49.829613+00:00	0.6010016202926636	-0.4073658585548401	(0.6010016202926636, 0.5660635828971863, -0.4073658585548401)	0.9997445940971375	0.9997445940971375	0.566214919090271	0.30741432309150696	(0.566214919090271, 0.5939368605613708, 0.30741432309150696)	0.9976047873497009	0.9976047873497009	0.5581203103065491	-0.5369773507118225	(0.5581203103065491, 0.8713101148605347, -0.5369773507118225)	0.8673049807548523	0.8673049807548523	0.5516635179519653	0.355956494808197	(0.5516635179519653, 0.8822259306907654, 0.355956494808197)	0.02875412069261074	0.02875412069261074	0.4517187178134918	-0.44143176078796387	(0.4517187178134918, 1.0518804788589478, -0.44143176078796387)	0.5093525052070618	0.5093525052070618	0.48769474029541016	0.17286726832389832	(0.48769474029541016, 1.055173635482788, 0.17286726832389832)	0.012852894142270088	0.012852894142270088	0.4517187178134918	-0.44143176078796387	(0.4517187178134918, 1.0518804788589478, -0.44143176078796387)	0.5093525052070618	0.5093525052070618	0.48769474029541016	0.17286726832389832	(0.48769474029541016, 1.055173635482788, 0.17286726832389832)	0.012852894142270088	0.012852894142270088	0.5836082696914673	-0.049975767731666565	(0.5836082696914673, 0.5800002217292786, -0.049975767731666565)			0.6007604897022247	-0.35552119091153145	(0.6007604897022247, 0.7057473510503769, -0.35552119091153145)			7.897725581652452	-7.996632932182806	7.996632932182791	107.08126319445736	72.91873680554264	0.5530732572078705	0.2811766713857651	(0.5530732572078705, 0.7257985919713974, 0.2811766713857651)			2.8018889684868213	-2.889554253677119	2.8895542536770904	99.6613166029126	80.3386833970874	0.30074194073677063	-0.2555275969207287	(0.30074194073677063, 0.14334802329540253, -0.2555275969207287)			0.296249121427536	0.17994481325149536	(0.296249121427536, 0.16510669887065887, 0.17994481325149536)			0.6010016202926636	-0.4073658585548401	(0.6010016202926636, 1.1247986555099487, -0.4073658585548401)			0.566214919090271	0.30741432309150696	(0.566214919090271, 1.121383786201477, 0.30741432309150696)		
39	2023-04-10T21:45:49.896299+00:00	0.6010567545890808	-0.39609262347221375	(0.6010567545890808, 0.565685510635376, -0.39609262347221375)	0.9997490048408508	0.9997490048408508	0.563493013381958	0.33266693353652954	(0.563493013381958, 0.5940487384796143, 0.33266693353652954)	0.9976986646652222	0.9976986646652222	0.5382803082466125	-0.5405672788619995	(0.5382803082466125, 0.8420045375823975, -0.5405672788619995)	0.8728072047233582	0.8728072047233582	0.5239040851593018	0.3880428075790405	(0.5239040851593018, 0.8602858185768127, 0.3880428075790405)	0.029028581455349922	0.029028581455349922	0.39786237478256226	-0.473713219165802	(0.39786237478256226, 1.0082623958587646, -0.473713219165802)	0.532684326171875	0.532684326171875	0.44179272651672363	0.17957939207553864	(0.44179272651672363, 1.0033806562423706, 0.17957939207553864)	0.0138450488448143	0.0138450488448143	0.39786237478256226	-0.473713219165802	(0.39786237478256226, 1.0082623958587646, -0.473713219165802)	0.532684326171875	0.532684326171875	0.44179272651672363	0.17957939207553864	(0.44179272651672363, 1.0033806562423706, 0.17957939207553864)	0.0138450488448143	0.0138450488448143	0.5822748839855194	-0.0317128449678421	(0.5822748839855194, 0.5798671245574951, -0.0317128449678421)			0.5992268472909927	-0.3486720994114876	(0.5992268472909927, 0.7030604183673859, -0.3486720994114876)			12.036500211710091	-12.799665525514584	12.79966552551457	114.66063920397836	65.33936079602164	0.547927051782608	0.30171605572104454	(0.547927051782608, 0.7220329642295837, 0.30171605572104454)			1.5233088306735567	-8.45779560176419	8.45779560176419	106.55797342223657	73.44202657776343	0.3023582845926285	-0.24546683579683304	(0.3023582845926285, 0.1454678475856781, -0.24546683579683304)			0.297312468290329	0.19728434458374977	(0.297312468290329, 0.16904014348983765, 0.19728434458374977)			0.6010567545890808	-0.39609262347221375	(0.6010567545890808, 1.1151851415634155, -0.39609262347221375)			0.563493013381958	0.33266693353652954	(0.563493013381958, 1.1059856414794922, 0.33266693353652954)		
40	2023-04-10T21:45:49.958627+00:00	0.6004577279090881	-0.4342801570892334	(0.6004577279090881, 0.5656496286392212, -0.4342801570892334)	0.9997433423995972	0.9997433423995972	0.5768877267837524	0.37923914194107056	(0.5768877267837524, 0.5901837944984436, 0.37923914194107056)	0.9977808594703674	0.9977808594703674	0.4808761477470398	-0.5907394886016846	(0.4808761477470398, 0.8182891607284546, -0.5907394886016846)	0.8794367909431458	0.8794367909431458	0.5012692809104919	0.4490338861942291	(0.5012692809104919, 0.8442006707191467, 0.4490338861942291)	0.030535222962498665	0.030535222962498665	0.3096386790275574	-0.5125812292098999	(0.3096386790275574, 0.9782652258872986, -0.5125812292098999)	0.561839759349823	0.561839759349823	0.3816435635089874	0.27825289964675903	(0.3816435635089874, 0.9811007976531982, 0.27825289964675903)	0.0158850084990263	0.0158850084990263	0.3096386790275574	-0.5125812292098999	(0.3096386790275574, 0.9782652258872986, -0.5125812292098999)	0.561839759349823	0.561839759349823	0.3816435635089874	0.27825289964675903	(0.3816435635089874, 0.9811007976531982, 0.27825289964675903)	0.0158850084990263	0.0158850084990263	0.5886727273464203	-0.02752050757408142	(0.5886727273464203, 0.5779167115688324, -0.02752050757408142)			0.598878875374794	-0.3816022165119648	(0.598878875374794, 0.7031692266464233, -0.3816022165119648)			24.6717646392556	-25.329544429787234	25.329544429787234	125.17688413121579	54.823115868784214	0.5606109797954559	0.34077951684594154	(0.5606109797954559, 0.7194837182760239, 0.34077951684594154)			9.402914035628555	-16.57777573093894	16.577775730938924	116.53991361956822	63.460086380431775	0.3018077164888382	-0.2698180191218853	(0.3018077164888382, 0.14530521631240845, -0.2698180191218853)			0.30472061038017273	0.2280791960656643	(0.30472061038017273, 0.16579197347164154, 0.2280791960656643)			0.6004577279090881	-0.4342801570892334	(0.6004577279090881, 1.1157280206680298, -0.4342801570892334)			0.5768877267837524	0.37923914194107056	(0.5768877267837524, 1.1073834896087646, 0.37923914194107056)		
41	2023-04-10T21:45:50.021107+00:00	0.6032406687736511	-0.45237240195274353	(0.6032406687736511, 0.5663185715675354, -0.45237240195274353)	0.9996441602706909	0.9996441602706909	0.5742159485816956	0.36078697443008423	(0.5742159485816956, 0.5895273089408875, 0.36078697443008423)	0.9976988434791565	0.9976988434791565	0.44819027185440063	-0.5854825377464294	(0.44819027185440063, 0.7929144501686096, -0.5854825377464294)	0.8874994516372681	0.8874994516372681	0.4340599477291107	0.43040093779563904	(0.4340599477291107, 0.809801459312439, 0.43040093779563904)	0.04249152913689613	0.04249152913689613	0.2305901050567627	-0.5079773664474487	(0.2305901050567627, 0.9021803736686707, -0.5079773664474487)	0.5995238423347473	0.5995238423347473	0.2594679594039917	0.28491389751434326	(0.2594679594039917, 0.8907575607299805, 0.28491389751434326)	0.02985461801290512	0.02985461801290512	0.2305901050567627	-0.5079773664474487	(0.2305901050567627, 0.9021803736686707, -0.5079773664474487)	0.5995238423347473	0.5995238423347473	0.2594679594039917	0.28491389751434326	(0.2594679594039917, 0.8907575607299805, 0.28491389751434326)	0.02985461801290512	0.02985461801290512	0.5887283086776733	-0.04579271376132965	(0.5887283086776733, 0.5779229402542114, -0.04579271376132965)			0.600917786359787	-0.3902778998017311	(0.600917786359787, 0.6968144327402115, -0.3902778998017311)			33.362476592574836	-34.38225839404113	34.382258394041116	137.97235393474855	42.027646065251446	0.5620579272508621	0.3217255100607872	(0.5620579272508621, 0.719021275639534, 0.3217255100607872)			27.104071667963353	-32.467774796206214	32.467774796206186	136.25716292138685	43.74283707861315	0.3039432168006897	-0.2882807031273842	(0.3039432168006897, 0.1526634246110916, -0.2882807031273842)			0.2992659956216812	0.21945495158433914	(0.2992659956216812, 0.16526968777179718, 0.21945495158433914)			0.6032406687736511	-0.45237240195274353	(0.6032406687736511, 1.0883020162582397, -0.45237240195274353)			0.5742159485816956	0.36078697443008423	(0.5742159485816956, 1.1075031757354736, 0.36078697443008423)		
42	2023-04-10T21:45:50.083325+00:00	0.6048745512962341	-0.478507936000824	(0.6048745512962341, 0.5663805603981018, -0.478507936000824)	0.9994208812713623	0.9994208812713623	0.5722230672836304	0.34614259004592896	(0.5722230672836304, 0.5896026492118835, 0.34614259004592896)	0.997551679611206	0.997551679611206	0.4065030515193939	-0.6428269147872925	(0.4065030515193939, 0.7404226660728455, -0.6428269147872925)	0.8916528820991516	0.8916528820991516	0.37761324644088745	0.39465802907943726	(0.37761324644088745, 0.7681704759597778, 0.39465802907943726)	0.05477899685502052	0.05477899685502052	0.1808076947927475	-0.5707237720489502	(0.1808076947927475, 0.8092228770256042, -0.5707237720489502)	0.6238512992858887	0.6238512992858887	0.19628670811653137	0.20674435794353485	(0.19628670811653137, 0.8162974119186401, 0.20674435794353485)	0.045134320855140686	0.045134320855140686	0.1808076947927475	-0.5707237720489502	(0.1808076947927475, 0.8092228770256042, -0.5707237720489502)	0.6238512992858887	0.6238512992858887	0.19628670811653137	0.20674435794353485	(0.19628670811653137, 0.8162974119186401, 0.20674435794353485)	0.045134320855140686	0.045134320855140686	0.5885488092899323	-0.06618267297744751	(0.5885488092899323, 0.5779916048049927, -0.06618267297744751)			0.6026087254285812	-0.40964706242084503	(0.6026087254285812, 0.6945334523916245, -0.40964706242084503)			47.724841548284786	-48.7377623816723	48.7377623816723	150.2023463927292	29.797653607270803	0.5610615015029907	0.3105084076523781	(0.5610615015029907, 0.719340369105339, 0.3105084076523781)			42.544340063974516	-47.461489914053146	47.461489914053146	148.90944870378027	31.09055129621973	0.30470310151576996	-0.30811484158039093	(0.30470310151576996, 0.15503738820552826, -0.30811484158039093)			0.29727309942245483	0.20870547741651535	(0.29727309942245483, 0.16506360471248627, 0.20870547741651535)			0.6048745512962341	-0.478507936000824	(0.6048745512962341, 1.0789921283721924, -0.478507936000824)			0.5722230672836304	0.34614259004592896	(0.5722230672836304, 1.1085535287857056, 0.34614259004592896)		
43	2023-04-10T21:45:50.148683+00:00	0.6067215204238892	-0.47030821442604065	(0.6067215204238892, 0.5665211081504822, -0.47030821442604065)	0.9988008141517639	0.9988008141517639	0.5536144971847534	0.3071599304676056	(0.5536144971847534, 0.5918502807617188, 0.3071599304676056)	0.9968220591545105	0.9968220591545105	0.39252620935440063	-0.6502824425697327	(0.39252620935440063, 0.6876245141029358, -0.6502824425697327)	0.896895706653595	0.896895706653595	0.3538070023059845	0.3639536201953888	(0.3538070023059845, 0.7079916000366211, 0.3639536201953888)	0.06831129640340805	0.06831129640340805	0.17147009074687958	-0.5824916958808899	(0.17147009074687958, 0.7112945318222046, -0.5824916958808899)	0.6440083384513855	0.6440083384513855	0.1660931557416916	0.18153919279575348	(0.1660931557416916, 0.7225903272628784, 0.18153919279575348)	0.06376168876886368	0.06376168876886368	0.17147009074687958	-0.5824916958808899	(0.17147009074687958, 0.7112945318222046, -0.5824916958808899)	0.6440083384513855	0.6440083384513855	0.1660931557416916	0.18153919279575348	(0.1660931557416916, 0.7225903272628784, 0.18153919279575348)	0.06376168876886368	0.06376168876886368	0.5801680088043213	-0.08157414197921753	(0.5801680088043213, 0.5791856944561005, -0.08157414197921753)			0.6073969006538391	-0.3987581357359886	(0.6073969006538391, 0.7006185501813889, -0.3987581357359886)			60.805280899948045	-60.51671380301042	60.51671380301042	161.60183189735298	18.39816810264702	0.5464083105325699	0.2765292376279831	(0.5464083105325699, 0.7210693955421448, 0.2765292376279831)			56.640097439351464	-59.83201574692637	59.83201574692637	161.35688658596717	18.643113414032825	0.30268537998199463	-0.30670418590307236	(0.30268537998199463, 0.1491631120443344, -0.30670418590307236)			0.28401343524456024	0.1842106580734253	(0.28401343524456024, 0.16670602560043335, 0.1842106580734253)			0.6067215204238892	-0.47030821442604065	(0.6067215204238892, 1.1029108762741089, -0.47030821442604065)			0.5536144971847534	0.3071599304676056	(0.5536144971847534, 1.1087267398834229, 0.3071599304676056)		
44	2023-04-10T21:45:50.211271+00:00	0.6069039106369019	-0.45333045721054077	(0.6069039106369019, 0.5655595064163208, -0.45333045721054077)	0.9984920620918274	0.9984920620918274	0.5487526059150696	0.30875110626220703	(0.5487526059150696, 0.5903763175010681, 0.30875110626220703)	0.9964370131492615	0.9964370131492615	0.3869919776916504	-0.6284068822860718	(0.3869919776916504, 0.6336414813995361, -0.6284068822860718)	0.9050987362861633	0.9050987362861633	0.3486453592777252	0.3652072548866272	(0.3486453592777252, 0.6549876928329468, 0.3652072548866272)	0.09201870113611221	0.09201870113611221	0.15452206134796143	-0.5530605912208557	(0.15452206134796143, 0.6364243626594543, -0.5530605912208557)	0.6723744869232178	0.6723744869232178	0.1633811593055725	0.1998225748538971	(0.1633811593055725, 0.6522731781005859, 0.1998225748538971)	0.09188263863325119	0.09188263863325119	0.15452206134796143	-0.5530605912208557	(0.15452206134796143, 0.6364243626594543, -0.5530605912208557)	0.6723744869232178	0.6723744869232178	0.1633811593055725	0.1998225748538971	(0.1633811593055725, 0.6522731781005859, 0.1998225748538971)	0.09188263863325119	0.09188263863325119	0.5778282582759857	-0.07228967547416687	(0.5778282582759857, 0.5779679119586945, -0.07228967547416687)			0.6075313091278076	-0.3820006810128689	(0.6075313091278076, 0.7000774443149567, -0.3820006810128689)			73.0653596859216	-72.79813119945709	72.79813119945706	171.0970641045694	8.902935895430602	0.5420115888118744	0.27366017177700996	(0.5420115888118744, 0.719707265496254, 0.27366017177700996)			69.12189206688339	-72.10557572918634	72.10557572918633	170.8753073229305	9.124692677069504	0.30282455682754517	-0.2979950048029423	(0.30282455682754517, 0.14826181530952454, -0.2979950048029423)			0.28111732006073	0.18946648761630058	(0.28111732006073, 0.1658572107553482, 0.18946648761630058)			0.6069039106369019	-0.45333045721054077	(0.6069039106369019, 1.1036312580108643, -0.45333045721054077)			0.5487526059150696	0.30875110626220703	(0.5487526059150696, 1.1077001094818115, 0.30875110626220703)		
45	2023-04-10T21:45:50.272580+00:00	0.6069021224975586	-0.43891677260398865	(0.6069021224975586, 0.564729630947113, -0.43891677260398865)	0.9978473782539368	0.9978473782539368	0.5424675941467285	0.30512097477912903	(0.5424675941467285, 0.5848554372787476, 0.30512097477912903)	0.9955541491508484	0.9955541491508484	0.3802512288093567	-0.635009765625	(0.3802512288093567, 0.5990902185440063, -0.635009765625)	0.9121341705322266	0.9121341705322266	0.3399880528450012	0.36757248640060425	(0.3399880528450012, 0.6074072122573853, 0.36757248640060425)	0.11424756050109863	0.11424756050109863	0.1495894193649292	-0.5649436116218567	(0.1495894193649292, 0.561623215675354, -0.5649436116218567)	0.6991331577301025	0.6991331577301025	0.15634706616401672	0.2038310468196869	(0.15634706616401672, 0.582347571849823, 0.2038310468196869)	0.12362074106931686	0.12362074106931686	0.1495894193649292	-0.5649436116218567	(0.1495894193649292, 0.561623215675354, -0.5649436116218567)	0.6991331577301025	0.6991331577301025	0.15634706616401672	0.2038310468196869	(0.15634706616401672, 0.582347571849823, 0.2038310468196869)	0.12362074106931686	0.12362074106931686	0.5746848583221436	-0.06689789891242981	(0.5746848583221436, 0.5747925341129303, -0.06689789891242981)			0.6073622703552246	-0.36939919367432594	(0.6073622703552246, 0.6995904296636581, -0.36939919367432594)			81.57501602302186	-81.37952238708826	81.37952238708824	-179.61080952738016	359.6108095273802	0.535222589969635	0.2692042887210846	(0.535222589969635, 0.7146877944469452, 0.2692042887210846)			80.45075090849151	-83.64470116155024	83.64470116155024	-179.62786727522072	359.62786727522075	0.3029909133911133	-0.28897596523165703	(0.3029909133911133, 0.1475040167570114, -0.28897596523165703)			0.27847880125045776	0.18847717344760895	(0.27847880125045776, 0.16259536147117615, 0.18847717344760895)			0.6069021224975586	-0.43891677260398865	(0.6069021224975586, 1.1041728258132935, -0.43891677260398865)			0.5424675941467285	0.30512097477912903	(0.5424675941467285, 1.104184865951538, 0.30512097477912903)		
46	2023-04-10T21:45:50.334824+00:00	0.6069017648696899	-0.4197705388069153	(0.6069017648696899, 0.5620390772819519, -0.4197705388069153)	0.9974954724311829	0.9974954724311829	0.5361182689666748	0.2838040888309479	(0.5361182689666748, 0.5790508985519409, 0.2838040888309479)	0.9950504302978516	0.9950504302978516	0.3747981786727905	-0.636541485786438	(0.3747981786727905, 0.5621795058250427, -0.636541485786438)	0.9189161062240601	0.9189161062240601	0.3404163718223572	0.34497973322868347	(0.3404163718223572, 0.5736058950424194, 0.34497973322868347)	0.13832350075244904	0.13832350075244904	0.14954034984111786	-0.5638543367385864	(0.14954034984111786, 0.5121376514434814, -0.5638543367385864)	0.7235273122787476	0.7235273122787476	0.16059105098247528	0.1852739155292511	(0.16059105098247528, 0.538517415523529, 0.1852739155292511)	0.14893658459186554	0.14893658459186554	0.14954034984111786	-0.5638543367385864	(0.14954034984111786, 0.5121376514434814, -0.5638543367385864)	0.7235273122787476	0.7235273122787476	0.16059105098247528	0.1852739155292511	(0.16059105098247528, 0.538517415523529, 0.1852739155292511)	0.14893658459186554	0.14893658459186554	0.5715100169181824	-0.0679832249879837	(0.5715100169181824, 0.5705449879169464, -0.0679832249879837)			0.6072537750005722	-0.35223235562443733	(0.6072537750005722, 0.6970448344945908, -0.35223235562443733)			90.11472563784949	-89.96533460773978	89.96533460773978	-173.77324821031476	353.77324821031476	0.5293210595846176	0.2504596710205078	(0.5293210595846176, 0.7085282206535339, 0.2504596710205078)			88.58861138530575	268.406273722369	91.593726277631	-173.83948517797774	353.83948517797774	0.3030988723039627	-0.2774234525859356	(0.3030988723039627, 0.1460137814283371, -0.2774234525859356)			0.2748563438653946	0.175246462225914	(0.2748563438653946, 0.16004812717437744, 0.175246462225914)			0.6069017648696899	-0.4197705388069153	(0.6069017648696899, 1.1020621061325073, -0.4197705388069153)			0.5361182689666748	0.2838040888309479	(0.5361182689666748, 1.096960186958313, 0.2838040888309479)		
47	2023-04-10T21:45:50.396051+00:00	0.6058802604675293	-0.4206697940826416	(0.6058802604675293, 0.5577640533447266, -0.4206697940826416)	0.9970380067825317	0.9970380067825317	0.5357437133789062	0.24535460770130157	(0.5357437133789062, 0.5706469416618347, 0.24535460770130157)	0.9942397475242615	0.9942397475242615	0.3716617822647095	-0.6614866256713867	(0.3716617822647095, 0.5420214533805847, -0.6614866256713867)	0.9241479635238647	0.9241479635238647	0.34674397110939026	0.2967882752418518	(0.34674397110939026, 0.5498390793800354, 0.2967882752418518)	0.15423981845378876	0.15423981845378876	0.14194399118423462	-0.5836063623428345	(0.14194399118423462, 0.4741274118423462, -0.5836063623428345)	0.7418501973152161	0.7418501973152161	0.15703053772449493	0.13789592683315277	(0.15703053772449493, 0.4956381618976593, 0.13789592683315277)	0.15846192836761475	0.15846192836761475	0.14194399118423462	-0.5836063623428345	(0.14194399118423462, 0.4741274118423462, -0.5836063623428345)	0.7418501973152161	0.7418501973152161	0.15703053772449493	0.13789592683315277	(0.15703053772449493, 0.4956381618976593, 0.13789592683315277)	0.15846192836761475	0.15846192836761475	0.5708119869232178	-0.08765759319067001	(0.5708119869232178, 0.5642054975032806, -0.08765759319067001)			0.60643669962883	-0.35082878917455673	(0.60643669962883, 0.6928215026855469, -0.35082878917455673)			94.0813139841665	266.1547443396338	93.84525566036623	-169.78070169409725	349.7807016940973	0.5284365564584732	0.21960071846842766	(0.5284365564584732, 0.7010317593812943, 0.21960071846842766)			93.07498499066638	263.717342813261	96.28265718673903	-168.7968624763783	348.7968624763783	0.302383691072464	-0.28017590194940567	(0.302383691072464, 0.14382457733154297, -0.28017590194940567)			0.27517901360988617	0.1484311930835247	(0.27517901360988617, 0.15493865311145782, 0.1484311930835247)			0.6058802604675293	-0.4206697940826416	(0.6058802604675293, 1.0979938507080078, -0.4206697940826416)			0.5357437133789062	0.24535460770130157	(0.5357437133789062, 1.0921862125396729, 0.24535460770130157)		
